(ROBOT FIXED AXLE MOUNT)
(T1  D=0.25 CR=0. - ZMIN=-1. - FLAT END MILL)
G90 G94 G91.1 G40 G49 G17
G20

(2D POCKET3)
M5
T1 M6
S18000 M3
G54
M8
G0 X2.1994 Y1.3232
G43 Z0.6 H1
Z0.2
G1 Z0.125 F72.
X2.1999 Y1.3243 Z0.1174
X2.2013 Y1.3273 Z0.1106
X2.2033 Y1.3323 Z0.1051
X2.2056 Y1.3386 Z0.1014
X2.2076 Y1.3458 Z0.1
G3 X1.9774 Y1.4042 Z0.087 I-0.1151 J0.0292
X2.2076 Y1.3458 Z0.0739 I0.1151 J-0.0292
X1.9774 Y1.4042 Z0.0609 I-0.1151 J0.0292
X2.2076 Y1.3458 Z0.0479 I0.1151 J-0.0292
X1.9774 Y1.4042 Z0.0349 I-0.1151 J0.0292
X2.2076 Y1.3458 Z0.0218 I0.1151 J-0.0292
X1.9774 Y1.4042 Z0.0088 I-0.1151 J0.0292
X2.2076 Y1.3458 Z-0.0042 I0.1151 J-0.0292
X1.9774 Y1.4042 Z-0.0172 I-0.1151 J0.0292
X2.2076 Y1.3458 Z-0.0303 I0.1151 J-0.0292
X1.9774 Y1.4042 Z-0.0433 I-0.1151 J0.0292
X2.2076 Y1.3458 Z-0.0563 I0.1151 J-0.0292
X1.9774 Y1.4042 Z-0.0694 I-0.1151 J0.0292
X2.2076 Y1.3458 Z-0.0824 I0.1151 J-0.0292
X1.9774 Y1.4042 Z-0.0954 I-0.1151 J0.0292
X2.2076 Y1.3458 Z-0.1084 I0.1151 J-0.0292
X2.1072 Y1.4928 Z-0.1155 I-0.1151 J0.0292
X1.9738 Y1.375 Z-0.1225 I-0.0147 J-0.1178
X2.1575 I0.0919 J0.
X2.1225 I-0.0175 J0. F216.
X2.3075 I0.0925 J0.
X1.9725 I-0.1675 J0.
X2.3075 I0.1675 J0.
X2.2914 Y1.387 I-0.0125 J0.
G1 X2.1727 Y1.3515
X2.1706 Y1.3505
X2.1687 Y1.3492
X2.1671 Y1.3475
X2.1146 Y1.2814
G3 X2.1282 Y1.2617 I0.0098 J-0.0078
X2.0569 Y1.4883 Z-0.1355 I-0.0356 J0.1133 F72.
X2.1282 Y1.2617 Z-0.1486 I0.0356 J-0.1133
X2.0569 Y1.4883 Z-0.1616 I-0.0356 J0.1133
X2.1282 Y1.2617 Z-0.1746 I0.0356 J-0.1133
X2.0569 Y1.4883 Z-0.1876 I-0.0356 J0.1133
X2.1282 Y1.2617 Z-0.2007 I0.0356 J-0.1133
X2.0569 Y1.4883 Z-0.2137 I-0.0356 J0.1133
X2.1282 Y1.2617 Z-0.2267 I0.0356 J-0.1133
X2.0569 Y1.4883 Z-0.2397 I-0.0356 J0.1133
X1.9738 Y1.375 Z-0.245 I0.0356 J-0.1133
X2.1575 I0.0919 J0.
X2.1225 I-0.0175 J0. F216.
X2.3075 I0.0925 J0.
X1.9725 I-0.1675 J0.
X2.3075 I0.1675 J0.
X2.2914 Y1.387 I-0.0125 J0.
G1 X2.1727 Y1.3515
X2.1706 Y1.3505
X2.1687 Y1.3492
X2.1671 Y1.3475
X2.1146 Y1.2814
G3 X2.1282 Y1.2617 I0.0098 J-0.0078
X2.0569 Y1.4883 Z-0.258 I-0.0356 J0.1133 F72.
X2.1282 Y1.2617 Z-0.2711 I0.0356 J-0.1133
X2.0569 Y1.4883 Z-0.2841 I-0.0356 J0.1133
X2.1282 Y1.2617 Z-0.2971 I0.0356 J-0.1133
X2.0569 Y1.4883 Z-0.3101 I-0.0356 J0.1133
X2.1282 Y1.2617 Z-0.3232 I0.0356 J-0.1133
X2.0569 Y1.4883 Z-0.3362 I-0.0356 J0.1133
X2.1282 Y1.2617 Z-0.3492 I0.0356 J-0.1133
X2.0569 Y1.4883 Z-0.3622 I-0.0356 J0.1133
X1.9738 Y1.375 Z-0.3675 I0.0356 J-0.1133
X2.1575 I0.0919 J0.
X2.1225 I-0.0175 J0. F216.
X2.3075 I0.0925 J0.
X1.9725 I-0.1675 J0.
X2.3075 I0.1675 J0.
X2.2914 Y1.387 I-0.0125 J0.
G1 X2.1727 Y1.3515
X2.1706 Y1.3505
X2.1687 Y1.3492
X2.1671 Y1.3475
X2.1146 Y1.2814
G3 X2.1282 Y1.2617 I0.0098 J-0.0078
X2.0569 Y1.4883 Z-0.3805 I-0.0356 J0.1133 F72.
X2.1282 Y1.2617 Z-0.3936 I0.0356 J-0.1133
X2.0569 Y1.4883 Z-0.4066 I-0.0356 J0.1133
X2.1282 Y1.2617 Z-0.4196 I0.0356 J-0.1133
X2.0569 Y1.4883 Z-0.4326 I-0.0356 J0.1133
X2.1282 Y1.2617 Z-0.4457 I0.0356 J-0.1133
X2.0569 Y1.4883 Z-0.4587 I-0.0356 J0.1133
X2.1282 Y1.2617 Z-0.4717 I0.0356 J-0.1133
X2.0569 Y1.4883 Z-0.4847 I-0.0356 J0.1133
X1.9738 Y1.375 Z-0.49 I0.0356 J-0.1133
X2.1575 I0.0919 J0.
X2.1225 I-0.0175 J0. F216.
X2.3075 I0.0925 J0.
X1.9725 I-0.1675 J0.
X2.3075 I0.1675 J0.
X2.2914 Y1.387 I-0.0125 J0.
G1 X2.1727 Y1.3515
X2.1706 Y1.3505
X2.1687 Y1.3492
X2.1671 Y1.3475
X2.1146 Y1.2814
G3 X2.1282 Y1.2617 I0.0098 J-0.0078
X2.0569 Y1.4883 Z-0.503 I-0.0356 J0.1133 F72.
X2.1282 Y1.2617 Z-0.5161 I0.0356 J-0.1133
X2.0569 Y1.4883 Z-0.5291 I-0.0356 J0.1133
X2.1282 Y1.2617 Z-0.5421 I0.0356 J-0.1133
X2.0569 Y1.4883 Z-0.5551 I-0.0356 J0.1133
X2.1282 Y1.2617 Z-0.5682 I0.0356 J-0.1133
X2.0569 Y1.4883 Z-0.5812 I-0.0356 J0.1133
X2.1282 Y1.2617 Z-0.5942 I0.0356 J-0.1133
X2.0569 Y1.4883 Z-0.6072 I-0.0356 J0.1133
X1.9738 Y1.375 Z-0.6125 I0.0356 J-0.1133
X2.1575 I0.0919 J0.
X2.1225 I-0.0175 J0. F216.
X2.3075 I0.0925 J0.
X1.9725 I-0.1675 J0.
X2.3075 I0.1675 J0.
X2.2914 Y1.387 I-0.0125 J0.
G1 X2.1727 Y1.3515
X2.1706 Y1.3505
X2.1687 Y1.3492
X2.1671 Y1.3475
X2.1146 Y1.2814
G3 X2.1282 Y1.2617 I0.0098 J-0.0078
X2.0569 Y1.4883 Z-0.6255 I-0.0356 J0.1133 F72.
X2.1282 Y1.2617 Z-0.6386 I0.0356 J-0.1133
X2.0569 Y1.4883 Z-0.6516 I-0.0356 J0.1133
X2.1282 Y1.2617 Z-0.6646 I0.0356 J-0.1133
X2.0569 Y1.4883 Z-0.6776 I-0.0356 J0.1133
X2.1282 Y1.2617 Z-0.6907 I0.0356 J-0.1133
X2.0569 Y1.4883 Z-0.7037 I-0.0356 J0.1133
X2.1282 Y1.2617 Z-0.7167 I0.0356 J-0.1133
X2.0569 Y1.4883 Z-0.7297 I-0.0356 J0.1133
X1.9738 Y1.375 Z-0.735 I0.0356 J-0.1133
X2.1575 I0.0919 J0.
X2.1225 I-0.0175 J0. F216.
X2.3075 I0.0925 J0.
X1.9725 I-0.1675 J0.
X2.3075 I0.1675 J0.
X2.2914 Y1.387 I-0.0125 J0.
G1 X2.1727 Y1.3515
X2.1706 Y1.3505
X2.1687 Y1.3492
X2.1671 Y1.3475
X2.1146 Y1.2814
G3 X2.1282 Y1.2617 I0.0098 J-0.0078
X2.0569 Y1.4883 Z-0.748 I-0.0356 J0.1133 F72.
X2.1282 Y1.2617 Z-0.7611 I0.0356 J-0.1133
X2.0569 Y1.4883 Z-0.7741 I-0.0356 J0.1133
X2.1282 Y1.2617 Z-0.7871 I0.0356 J-0.1133
X2.0569 Y1.4883 Z-0.8001 I-0.0356 J0.1133
X2.1282 Y1.2617 Z-0.8132 I0.0356 J-0.1133
X2.0569 Y1.4883 Z-0.8262 I-0.0356 J0.1133
X2.1282 Y1.2617 Z-0.8392 I0.0356 J-0.1133
X2.0569 Y1.4883 Z-0.8522 I-0.0356 J0.1133
X1.9738 Y1.375 Z-0.8575 I0.0356 J-0.1133
X2.1575 I0.0919 J0.
X2.1225 I-0.0175 J0. F216.
X2.3075 I0.0925 J0.
X1.9725 I-0.1675 J0.
X2.3075 I0.1675 J0.
X2.2914 Y1.387 I-0.0125 J0.
G1 X2.1727 Y1.3515
X2.1706 Y1.3505
X2.1687 Y1.3492
X2.1671 Y1.3475
X2.1146 Y1.2814
G3 X2.1282 Y1.2617 I0.0098 J-0.0078
X2.0569 Y1.4883 Z-0.8705 I-0.0356 J0.1133 F72.
X2.1282 Y1.2617 Z-0.8836 I0.0356 J-0.1133
X2.0569 Y1.4883 Z-0.8966 I-0.0356 J0.1133
X2.1282 Y1.2617 Z-0.9096 I0.0356 J-0.1133
X2.0569 Y1.4883 Z-0.9226 I-0.0356 J0.1133
X2.1282 Y1.2617 Z-0.9357 I0.0356 J-0.1133
X2.0569 Y1.4883 Z-0.9487 I-0.0356 J0.1133
X2.1282 Y1.2617 Z-0.9617 I0.0356 J-0.1133
X2.0569 Y1.4883 Z-0.9747 I-0.0356 J0.1133
X1.9738 Y1.375 Z-0.98 I0.0356 J-0.1133
X2.1575 I0.0919 J0.
X2.1225 I-0.0175 J0. F216.
X2.3075 I0.0925 J0.
X1.9725 I-0.1675 J0.
X2.3075 I0.1675 J0.
G1 X2.3072 Y1.3788 Z-0.9794
X2.3063 Y1.3826 Z-0.9788
X2.305 Y1.3858 Z-0.977
X2.3033 Y1.3889 Z-0.9752
X2.3016 Y1.3911 Z-0.9725
X2.2998 Y1.3931 Z-0.9697
X2.297 Y1.3954 Z-0.9627
X2.296 Y1.396 Z-0.955
G0 Z0.6

(CIRCULAR1)
G0 X2.265 Y1.35
Z0.6
Z-0.92
G1 Z-0.975 F216.
G18 G2 X2.29 Z-1. I0.025 K0.
G1 X2.3025
G17 G3 X2.3275 Y1.375 I0. J0.025
X1.9525 I-0.1875 J0.
X2.3275 I0.1875 J0.
X2.3025 Y1.4 I-0.025 J0.
G1 X2.29
G18 G3 X2.265 Z-0.975 I0. K0.025
G0 Z0.6
G17

(2D CONTOUR1)
G0 X0.2692 Y1.1314
Z0.6
Z0.2
G1 Z0.1644 F72.
Z-0.1
X0.2695 Y1.1313 Z-0.1039 F216.
X0.2704 Z-0.1077
X0.2719 Y1.1311 Z-0.1113
X0.2739 Y1.131 Z-0.1147
X0.2765 Y1.1307 Z-0.1177
X0.2794 Y1.1305 Z-0.1202
X0.2828 Y1.1302 Z-0.1223
X0.2864 Y1.1299 Z-0.1238
X0.2902 Y1.1295 Z-0.1247
X0.2941 Y1.1292 Z-0.125
X0.319 Y1.127
G3 X0.3461 Y1.1497 I0.0022 J0.0249
G2 X0.625 Y1.405 I0.2789 J-0.0247
G1 X1.1104
G2 X3.1696 I1.0296 J-0.03
G1 X3.655
G2 X3.935 Y1.125 I0. J-0.28
G1 Y0.5
G2 X3.78 Y0.345 I-0.155 J0.
G1 X0.5
G2 X0.345 Y0.5 I0. J0.155
G1 Y1.125
G2 X0.3461 Y1.1497 I0.28 J0.
G3 X0.3234 Y1.1768 I-0.0249 J0.0022
G1 X0.2985 Y1.179
X0.2946 Y1.1793 Z-0.1247
X0.2908 Y1.1797 Z-0.1238
X0.2872 Y1.18 Z-0.1223
X0.2838 Y1.1803 Z-0.1202
X0.2809 Y1.1805 Z-0.1177
X0.2783 Y1.1808 Z-0.1147
X0.2763 Y1.1809 Z-0.1113
X0.2748 Y1.1811 Z-0.1077
X0.2739 Y1.1812 Z-0.1039
X0.2736 Z-0.1
G0 Z0.2
X0.2692 Y1.1314
G1 Z0.0394 F72.
Z-0.225
X0.2695 Y1.1313 Z-0.2289 F216.
X0.2704 Z-0.2327
X0.2719 Y1.1311 Z-0.2363
X0.2739 Y1.131 Z-0.2397
X0.2765 Y1.1307 Z-0.2427
X0.2794 Y1.1305 Z-0.2452
X0.2828 Y1.1302 Z-0.2473
X0.2864 Y1.1299 Z-0.2488
X0.2902 Y1.1295 Z-0.2497
X0.2941 Y1.1292 Z-0.25
X0.319 Y1.127
G3 X0.3461 Y1.1497 I0.0022 J0.0249
G2 X0.625 Y1.405 I0.2789 J-0.0247
G1 X1.1104
G2 X3.1696 I1.0296 J-0.03
G1 X3.655
G2 X3.935 Y1.125 I0. J-0.28
G1 Y0.5
G2 X3.78 Y0.345 I-0.155 J0.
G1 X0.5
G2 X0.345 Y0.5 I0. J0.155
G1 Y1.125
G2 X0.3461 Y1.1497 I0.28 J0.
G3 X0.3234 Y1.1768 I-0.0249 J0.0022
G1 X0.2985 Y1.179
X0.2946 Y1.1793 Z-0.2497
X0.2908 Y1.1797 Z-0.2488
X0.2872 Y1.18 Z-0.2473
X0.2838 Y1.1803 Z-0.2452
X0.2809 Y1.1805 Z-0.2427
X0.2783 Y1.1808 Z-0.2397
X0.2763 Y1.1809 Z-0.2363
X0.2748 Y1.1811 Z-0.2327
X0.2739 Y1.1812 Z-0.2289
X0.2736 Z-0.225
G0 Z0.2
X0.2692 Y1.1314
G1 Z-0.0856 F72.
Z-0.35
X0.2695 Y1.1313 Z-0.3539 F216.
X0.2704 Z-0.3577
X0.2719 Y1.1311 Z-0.3613
X0.2739 Y1.131 Z-0.3647
X0.2765 Y1.1307 Z-0.3677
X0.2794 Y1.1305 Z-0.3702
X0.2828 Y1.1302 Z-0.3723
X0.2864 Y1.1299 Z-0.3738
X0.2902 Y1.1295 Z-0.3747
X0.2941 Y1.1292 Z-0.375
X0.319 Y1.127
G3 X0.3461 Y1.1497 I0.0022 J0.0249
G2 X0.625 Y1.405 I0.2789 J-0.0247
G1 X1.1104
G2 X3.1696 I1.0296 J-0.03
G1 X3.655
G2 X3.935 Y1.125 I0. J-0.28
G1 Y0.5
G2 X3.78 Y0.345 I-0.155 J0.
G1 X0.5
G2 X0.345 Y0.5 I0. J0.155
G1 Y1.125
G2 X0.3461 Y1.1497 I0.28 J0.
G3 X0.3234 Y1.1768 I-0.0249 J0.0022
G1 X0.2985 Y1.179
X0.2946 Y1.1793 Z-0.3747
X0.2908 Y1.1797 Z-0.3738
X0.2872 Y1.18 Z-0.3723
X0.2838 Y1.1803 Z-0.3702
X0.2809 Y1.1805 Z-0.3677
X0.2783 Y1.1808 Z-0.3647
X0.2763 Y1.1809 Z-0.3613
X0.2748 Y1.1811 Z-0.3577
X0.2739 Y1.1812 Z-0.3539
X0.2736 Z-0.35
G0 Z0.2
X0.2692 Y1.1314
G1 Z-0.2106 F72.
Z-0.475
X0.2695 Y1.1313 Z-0.4789 F216.
X0.2704 Z-0.4827
X0.2719 Y1.1311 Z-0.4863
X0.2739 Y1.131 Z-0.4897
X0.2765 Y1.1307 Z-0.4927
X0.2794 Y1.1305 Z-0.4952
X0.2828 Y1.1302 Z-0.4973
X0.2864 Y1.1299 Z-0.4988
X0.2902 Y1.1295 Z-0.4997
X0.2941 Y1.1292 Z-0.5
X0.319 Y1.127
G3 X0.3461 Y1.1497 I0.0022 J0.0249
G2 X0.625 Y1.405 I0.2789 J-0.0247
G1 X1.1104
G2 X3.1696 I1.0296 J-0.03
G1 X3.655
G2 X3.935 Y1.125 I0. J-0.28
G1 Y0.5
G2 X3.78 Y0.345 I-0.155 J0.
G1 X0.5
G2 X0.345 Y0.5 I0. J0.155
G1 Y1.125
G2 X0.3461 Y1.1497 I0.28 J0.
G3 X0.3234 Y1.1768 I-0.0249 J0.0022
G1 X0.2985 Y1.179
X0.2946 Y1.1793 Z-0.4997
X0.2908 Y1.1797 Z-0.4988
X0.2872 Y1.18 Z-0.4973
X0.2838 Y1.1803 Z-0.4952
X0.2809 Y1.1805 Z-0.4927
X0.2783 Y1.1808 Z-0.4897
X0.2763 Y1.1809 Z-0.4863
X0.2748 Y1.1811 Z-0.4827
X0.2739 Y1.1812 Z-0.4789
X0.2736 Z-0.475
G0 Z0.2
X0.2692 Y1.1314
G1 Z-0.3356 F72.
Z-0.6
X0.2695 Y1.1313 Z-0.6039 F216.
X0.2704 Z-0.6077
X0.2719 Y1.1311 Z-0.6113
X0.2739 Y1.131 Z-0.6147
X0.2765 Y1.1307 Z-0.6177
X0.2794 Y1.1305 Z-0.6202
X0.2828 Y1.1302 Z-0.6223
X0.2864 Y1.1299 Z-0.6238
X0.2902 Y1.1295 Z-0.6247
X0.2941 Y1.1292 Z-0.625
X0.319 Y1.127
G3 X0.3461 Y1.1497 I0.0022 J0.0249
G2 X0.625 Y1.405 I0.2789 J-0.0247
G1 X1.1104
G2 X3.1696 I1.0296 J-0.03
G1 X3.655
G2 X3.935 Y1.125 I0. J-0.28
G1 Y0.5
G2 X3.78 Y0.345 I-0.155 J0.
G1 X0.5
G2 X0.345 Y0.5 I0. J0.155
G1 Y1.125
G2 X0.3461 Y1.1497 I0.28 J0.
G3 X0.3234 Y1.1768 I-0.0249 J0.0022
G1 X0.2985 Y1.179
X0.2946 Y1.1793 Z-0.6247
X0.2908 Y1.1797 Z-0.6238
X0.2872 Y1.18 Z-0.6223
X0.2838 Y1.1803 Z-0.6202
X0.2809 Y1.1805 Z-0.6177
X0.2783 Y1.1808 Z-0.6147
X0.2763 Y1.1809 Z-0.6113
X0.2748 Y1.1811 Z-0.6077
X0.2739 Y1.1812 Z-0.6039
X0.2736 Z-0.6
G0 Z0.2
X0.2692 Y1.1314
G1 Z-0.4606 F72.
Z-0.725
X0.2695 Y1.1313 Z-0.7289 F216.
X0.2704 Z-0.7327
X0.2719 Y1.1311 Z-0.7363
X0.2739 Y1.131 Z-0.7397
X0.2765 Y1.1307 Z-0.7427
X0.2794 Y1.1305 Z-0.7452
X0.2828 Y1.1302 Z-0.7473
X0.2864 Y1.1299 Z-0.7488
X0.2902 Y1.1295 Z-0.7497
X0.2941 Y1.1292 Z-0.75
X0.319 Y1.127
G3 X0.3461 Y1.1497 I0.0022 J0.0249
G2 X0.625 Y1.405 I0.2789 J-0.0247
G1 X1.1104
G2 X3.1696 I1.0296 J-0.03
G1 X3.655
G2 X3.935 Y1.125 I0. J-0.28
G1 Y0.5
G2 X3.78 Y0.345 I-0.155 J0.
G1 X0.5
G2 X0.345 Y0.5 I0. J0.155
G1 Y1.125
G2 X0.3461 Y1.1497 I0.28 J0.
G3 X0.3234 Y1.1768 I-0.0249 J0.0022
G1 X0.2985 Y1.179
X0.2946 Y1.1793 Z-0.7497
X0.2908 Y1.1797 Z-0.7488
X0.2872 Y1.18 Z-0.7473
X0.2838 Y1.1803 Z-0.7452
X0.2809 Y1.1805 Z-0.7427
X0.2783 Y1.1808 Z-0.7397
X0.2763 Y1.1809 Z-0.7363
X0.2748 Y1.1811 Z-0.7327
X0.2739 Y1.1812 Z-0.7289
X0.2736 Z-0.725
G0 Z0.2
X0.2692 Y1.1314
G1 Z-0.5856 F72.
Z-0.79
X0.2695 Y1.1313 Z-0.7939 F216.
X0.2704 Z-0.7977
X0.2719 Y1.1311 Z-0.8013
X0.2739 Y1.131 Z-0.8047
X0.2765 Y1.1307 Z-0.8077
X0.2794 Y1.1305 Z-0.8102
X0.2828 Y1.1302 Z-0.8123
X0.2864 Y1.1299 Z-0.8138
X0.2902 Y1.1295 Z-0.8147
X0.2941 Y1.1292 Z-0.815
X0.319 Y1.127
G3 X0.3461 Y1.1497 I0.0022 J0.0249
G2 X0.625 Y1.405 I0.2789 J-0.0247
G1 X1.1104
G2 X3.1696 I1.0296 J-0.03
G1 X3.655
G2 X3.935 Y1.125 I0. J-0.28
G1 Y0.5
G2 X3.78 Y0.345 I-0.155 J0.
G1 X0.5
G2 X0.345 Y0.5 I0. J0.155
G1 Y1.125
G2 X0.3461 Y1.1497 I0.28 J0.
G3 X0.3234 Y1.1768 I-0.0249 J0.0022
G1 X0.2985 Y1.179
X0.2946 Y1.1793 Z-0.8147
X0.2908 Y1.1797 Z-0.8138
X0.2872 Y1.18 Z-0.8123
X0.2838 Y1.1803 Z-0.8102
X0.2809 Y1.1805 Z-0.8077
X0.2783 Y1.1808 Z-0.8047
X0.2763 Y1.1809 Z-0.8013
X0.2748 Y1.1811 Z-0.7977
X0.2739 Y1.1812 Z-0.7939
X0.2736 Z-0.79
G0 Z0.2
X0.2692 Y1.1314
G1 Z-0.6506 F72.
Z-0.855
X0.2695 Y1.1313 Z-0.8589 F216.
X0.2704 Z-0.8627
X0.2719 Y1.1311 Z-0.8663
X0.2739 Y1.131 Z-0.8697
X0.2765 Y1.1307 Z-0.8727
X0.2794 Y1.1305 Z-0.8752
X0.2828 Y1.1302 Z-0.8773
X0.2864 Y1.1299 Z-0.8788
X0.2902 Y1.1295 Z-0.8797
X0.2941 Y1.1292 Z-0.88
X0.319 Y1.127
G3 X0.3461 Y1.1497 I0.0022 J0.0249
G2 X0.625 Y1.405 I0.2789 J-0.0247
G1 X1.1104
G2 X3.1696 I1.0296 J-0.03
G1 X3.655
G2 X3.935 Y1.125 I0. J-0.28
G1 Y0.5
G2 X3.78 Y0.345 I-0.155 J0.
G1 X0.5
G2 X0.345 Y0.5 I0. J0.155
G1 Y1.125
G2 X0.3461 Y1.1497 I0.28 J0.
G3 X0.3234 Y1.1768 I-0.0249 J0.0022
G1 X0.2985 Y1.179
X0.2946 Y1.1793 Z-0.8797
X0.2908 Y1.1797 Z-0.8788
X0.2872 Y1.18 Z-0.8773
X0.2838 Y1.1803 Z-0.8752
X0.2809 Y1.1805 Z-0.8727
X0.2783 Y1.1808 Z-0.8697
X0.2763 Y1.1809 Z-0.8663
X0.2748 Y1.1811 Z-0.8627
X0.2739 Y1.1812 Z-0.8589
X0.2736 Z-0.855
G0 Z0.6

(2D CONTOUR1 2)
G0 X0.2991 Y1.1287
Z0.6
Z0.2
G1 Z0.0394 F72.
Z-0.855
X0.2994 Z-0.8589 F216.
X0.3003 Y1.1286 Z-0.8627
X0.3018 Y1.1285 Z-0.8663
X0.3038 Y1.1283 Z-0.8697
X0.3064 Y1.1281 Z-0.8727
X0.3093 Y1.1278 Z-0.8752
X0.3127 Y1.1275 Z-0.8773
X0.3163 Y1.1272 Z-0.8788
X0.3201 Y1.1269 Z-0.8797
X0.324 Y1.1265 Z-0.88
X0.3489 Y1.1243
G3 X0.376 Y1.147 I0.0022 J0.0249
G2 X0.625 Y1.375 I0.249 J-0.022
G1 X1.14
G2 X3.14 I1. J0.
G1 X3.655
G2 X3.905 Y1.125 I0. J-0.25
G1 Y0.5
G2 X3.78 Y0.375 I-0.125 J0.
G1 X0.5
G2 X0.375 Y0.5 I0. J0.125
G1 Y1.125
G2 X0.376 Y1.147 I0.25 J0.
G3 X0.3533 Y1.1741 I-0.0249 J0.0022
G1 X0.3284 Y1.1763
X0.3245 Y1.1767 Z-0.8797
X0.3207 Y1.177 Z-0.8788
X0.3171 Y1.1773 Z-0.8773
X0.3137 Y1.1776 Z-0.8752
X0.3108 Y1.1779 Z-0.8727
X0.3082 Y1.1781 Z-0.8697
X0.3062 Y1.1783 Z-0.8663
X0.3047 Y1.1784 Z-0.8627
X0.3038 Y1.1785 Z-0.8589
X0.3035 Z-0.855
G0 Z0.6

M9
M30
