(ROBOT PLATFORM 1)
(T1  D=0.25 CR=0. - ZMIN=-0.813 - FLAT END MILL)
G90 G94 G91.1 G40 G49 G17
G20

(BORE1)
M5
T1 M6
S18000 M3
G54
M8
G0 X0.4951 Y0.7311
G43 Z0.6 H1
Z0.055
G1 Z0. F216.
X0.5076
G3 X0.5151 Y0.7386 I0. J0.0075
X0.4851 Z-0.0049 I-0.015 J0.
X0.5151 Z-0.0098 I0.015 J0.
X0.4851 Z-0.0147 I-0.015 J0.
X0.5151 Z-0.0196 I0.015 J0.
X0.4851 Z-0.0244 I-0.015 J0.
X0.5151 Z-0.0293 I0.015 J0.
X0.4851 Z-0.0342 I-0.015 J0.
X0.5151 Z-0.0391 I0.015 J0.
X0.4851 Z-0.044 I-0.015 J0.
X0.5151 Z-0.0489 I0.015 J0.
X0.4851 Z-0.0538 I-0.015 J0.
X0.5151 Z-0.0587 I0.015 J0.
X0.4851 Z-0.0636 I-0.015 J0.
X0.5151 Z-0.0684 I0.015 J0.
X0.4851 Z-0.0733 I-0.015 J0.
X0.5151 Z-0.0782 I0.015 J0.
X0.4851 Z-0.0831 I-0.015 J0.
X0.5151 Z-0.088 I0.015 J0.
X0.4851 Z-0.0929 I-0.015 J0.
X0.5151 Z-0.0978 I0.015 J0.
X0.4851 Z-0.1027 I-0.015 J0.
X0.5151 Z-0.1076 I0.015 J0.
X0.4851 Z-0.1124 I-0.015 J0.
X0.5151 Z-0.1173 I0.015 J0.
X0.4851 Z-0.1222 I-0.015 J0.
X0.5151 Z-0.1271 I0.015 J0.
X0.4851 Z-0.132 I-0.015 J0.
X0.5151 Z-0.1369 I0.015 J0.
X0.4851 Z-0.1418 I-0.015 J0.
X0.5151 Z-0.1467 I0.015 J0.
X0.4851 Z-0.1516 I-0.015 J0.
X0.5151 Z-0.1564 I0.015 J0.
X0.4851 Z-0.1613 I-0.015 J0.
X0.5151 Z-0.1662 I0.015 J0.
X0.4851 Z-0.1711 I-0.015 J0.
X0.5151 Z-0.176 I0.015 J0.
X0.4851 Z-0.1809 I-0.015 J0.
X0.5151 Z-0.1858 I0.015 J0.
X0.4851 Z-0.1907 I-0.015 J0.
X0.5151 Z-0.1956 I0.015 J0.
X0.4851 Z-0.2004 I-0.015 J0.
X0.5151 Z-0.2053 I0.015 J0.
X0.4851 Z-0.2102 I-0.015 J0.
X0.5151 Z-0.2151 I0.015 J0.
X0.4851 Z-0.22 I-0.015 J0.
X0.5151 Z-0.2249 I0.015 J0.
X0.4851 Z-0.2298 I-0.015 J0.
X0.5151 Z-0.2347 I0.015 J0.
X0.4851 Z-0.2396 I-0.015 J0.
X0.5151 Z-0.2444 I0.015 J0.
X0.4851 Z-0.2493 I-0.015 J0.
X0.5151 Z-0.2542 I0.015 J0.
X0.4851 Z-0.2591 I-0.015 J0.
X0.5151 Z-0.264 I0.015 J0.
X0.4851 Z-0.2689 I-0.015 J0.
X0.5151 Z-0.2738 I0.015 J0.
X0.4851 Z-0.2787 I-0.015 J0.
X0.5151 Z-0.2836 I0.015 J0.
X0.4851 Z-0.2884 I-0.015 J0.
X0.5151 Z-0.2933 I0.015 J0.
X0.4851 Z-0.2982 I-0.015 J0.
X0.5151 Z-0.3031 I0.015 J0.
X0.4851 Z-0.308 I-0.015 J0.
X0.5151 Z-0.3129 I0.015 J0.
X0.4851 Z-0.3178 I-0.015 J0.
X0.5151 Z-0.3227 I0.015 J0.
X0.4851 Z-0.3276 I-0.015 J0.
X0.5151 Z-0.3324 I0.015 J0.
X0.4851 Z-0.3373 I-0.015 J0.
X0.5151 Z-0.3422 I0.015 J0.
X0.4851 Z-0.3471 I-0.015 J0.
X0.5151 Z-0.352 I0.015 J0.
X0.4851 Z-0.3569 I-0.015 J0.
X0.5151 Z-0.3618 I0.015 J0.
X0.4851 Z-0.3667 I-0.015 J0.
X0.5151 Z-0.3716 I0.015 J0.
X0.4851 Z-0.3764 I-0.015 J0.
X0.5151 Z-0.3813 I0.015 J0.
X0.4851 Z-0.3862 I-0.015 J0.
X0.5151 Z-0.3911 I0.015 J0.
X0.4851 Z-0.396 I-0.015 J0.
X0.5151 Z-0.4009 I0.015 J0.
X0.4851 Z-0.4058 I-0.015 J0.
X0.5151 Z-0.4107 I0.015 J0.
X0.4851 Z-0.4156 I-0.015 J0.
X0.5151 Z-0.4204 I0.015 J0.
X0.4851 Z-0.4253 I-0.015 J0.
X0.5151 Z-0.4302 I0.015 J0.
X0.4851 Z-0.4351 I-0.015 J0.
X0.5151 Z-0.44 I0.015 J0.
X0.4851 Z-0.4449 I-0.015 J0.
X0.5151 Z-0.4498 I0.015 J0.
X0.4851 Z-0.4547 I-0.015 J0.
X0.5151 Z-0.4596 I0.015 J0.
X0.4851 Z-0.4644 I-0.015 J0.
X0.5151 Z-0.4693 I0.015 J0.
X0.4851 Z-0.4742 I-0.015 J0.
X0.5151 Z-0.4791 I0.015 J0.
X0.4851 Z-0.484 I-0.015 J0.
X0.5151 Z-0.4889 I0.015 J0.
X0.4851 Z-0.4938 I-0.015 J0.
X0.5151 Z-0.4987 I0.015 J0.
X0.4851 Z-0.5036 I-0.015 J0.
X0.5151 Z-0.5084 I0.015 J0.
X0.4851 Z-0.5133 I-0.015 J0.
X0.5151 Z-0.5182 I0.015 J0.
X0.4851 Z-0.5231 I-0.015 J0.
X0.5151 Z-0.528 I0.015 J0.
X0.4851 Z-0.5329 I-0.015 J0.
X0.5151 Z-0.5378 I0.015 J0.
X0.4851 Z-0.5427 I-0.015 J0.
X0.5151 Z-0.5476 I0.015 J0.
X0.4851 Z-0.5524 I-0.015 J0.
X0.5151 Z-0.5573 I0.015 J0.
X0.4851 Z-0.5622 I-0.015 J0.
X0.5151 Z-0.5671 I0.015 J0.
X0.4851 Z-0.572 I-0.015 J0.
X0.5151 Z-0.5769 I0.015 J0.
X0.4851 Z-0.5818 I-0.015 J0.
X0.5151 Z-0.5867 I0.015 J0.
X0.4851 Z-0.5916 I-0.015 J0.
X0.5151 Z-0.5964 I0.015 J0.
X0.4851 Z-0.6013 I-0.015 J0.
X0.5151 Z-0.6062 I0.015 J0.
X0.4851 Z-0.6111 I-0.015 J0.
X0.5151 Z-0.616 I0.015 J0.
X0.4851 Z-0.6209 I-0.015 J0.
X0.5151 Z-0.6258 I0.015 J0.
X0.4851 Z-0.6307 I-0.015 J0.
X0.5151 Z-0.6356 I0.015 J0.
X0.4851 Z-0.6404 I-0.015 J0.
X0.5151 Z-0.6453 I0.015 J0.
X0.4851 Z-0.6502 I-0.015 J0.
X0.5151 Z-0.6551 I0.015 J0.
X0.4851 Z-0.66 I-0.015 J0.
X0.5151 Z-0.6649 I0.015 J0.
X0.4851 Z-0.6698 I-0.015 J0.
X0.5151 Z-0.6747 I0.015 J0.
X0.4851 Z-0.6796 I-0.015 J0.
X0.5151 Z-0.6844 I0.015 J0.
X0.4851 Z-0.6893 I-0.015 J0.
X0.5151 Z-0.6942 I0.015 J0.
X0.4851 Z-0.6991 I-0.015 J0.
X0.5151 Z-0.704 I0.015 J0.
X0.4851 Z-0.7089 I-0.015 J0.
X0.5151 Z-0.7138 I0.015 J0.
X0.4851 Z-0.7187 I-0.015 J0.
X0.5151 Z-0.7236 I0.015 J0.
X0.4851 Z-0.7284 I-0.015 J0.
X0.5151 Z-0.7333 I0.015 J0.
X0.4851 Z-0.7382 I-0.015 J0.
X0.5151 Z-0.7431 I0.015 J0.
X0.4851 Z-0.748 I-0.015 J0.
X0.5151 Z-0.7529 I0.015 J0.
X0.4851 Z-0.7578 I-0.015 J0.
X0.5151 Z-0.7627 I0.015 J0.
X0.4851 Z-0.7676 I-0.015 J0.
X0.5151 Z-0.7724 I0.015 J0.
X0.4851 Z-0.7773 I-0.015 J0.
X0.5151 Z-0.7822 I0.015 J0.
X0.4851 Z-0.7871 I-0.015 J0.
X0.5151 Z-0.792 I0.015 J0.
X0.4851 Z-0.7969 I-0.015 J0.
X0.5151 Z-0.8018 I0.015 J0.
X0.4851 Z-0.8067 I-0.015 J0.
X0.5151 Z-0.8116 I0.015 J0.
X0.5091 Y0.7506 Z-0.813 I-0.015 J0.
X0.491 Y0.7266 I-0.009 J-0.012
X0.5091 Y0.7506 I0.009 J0.012
X0.4986 Y0.7491 I-0.0045 J-0.006
G1 X0.4911 Y0.7391
G0 Z0.2
X0.4951 Y3.2539
Z0.055
G1 Z0. F216.
X0.5076
G3 X0.5151 Y3.2614 I0. J0.0075
X0.4851 Z-0.0049 I-0.015 J0.
X0.5151 Z-0.0098 I0.015 J0.
X0.4851 Z-0.0147 I-0.015 J0.
X0.5151 Z-0.0196 I0.015 J0.
X0.4851 Z-0.0244 I-0.015 J0.
X0.5151 Z-0.0293 I0.015 J0.
X0.4851 Z-0.0342 I-0.015 J0.
X0.5151 Z-0.0391 I0.015 J0.
X0.4851 Z-0.044 I-0.015 J0.
X0.5151 Z-0.0489 I0.015 J0.
X0.4851 Z-0.0538 I-0.015 J0.
X0.5151 Z-0.0587 I0.015 J0.
X0.4851 Z-0.0636 I-0.015 J0.
X0.5151 Z-0.0684 I0.015 J0.
X0.4851 Z-0.0733 I-0.015 J0.
X0.5151 Z-0.0782 I0.015 J0.
X0.4851 Z-0.0831 I-0.015 J0.
X0.5151 Z-0.088 I0.015 J0.
X0.4851 Z-0.0929 I-0.015 J0.
X0.5151 Z-0.0978 I0.015 J0.
X0.4851 Z-0.1027 I-0.015 J0.
X0.5151 Z-0.1076 I0.015 J0.
X0.4851 Z-0.1124 I-0.015 J0.
X0.5151 Z-0.1173 I0.015 J0.
X0.4851 Z-0.1222 I-0.015 J0.
X0.5151 Z-0.1271 I0.015 J0.
X0.4851 Z-0.132 I-0.015 J0.
X0.5151 Z-0.1369 I0.015 J0.
X0.4851 Z-0.1418 I-0.015 J0.
X0.5151 Z-0.1467 I0.015 J0.
X0.4851 Z-0.1516 I-0.015 J0.
X0.5151 Z-0.1564 I0.015 J0.
X0.4851 Z-0.1613 I-0.015 J0.
X0.5151 Z-0.1662 I0.015 J0.
X0.4851 Z-0.1711 I-0.015 J0.
X0.5151 Z-0.176 I0.015 J0.
X0.4851 Z-0.1809 I-0.015 J0.
X0.5151 Z-0.1858 I0.015 J0.
X0.4851 Z-0.1907 I-0.015 J0.
X0.5151 Z-0.1956 I0.015 J0.
X0.4851 Z-0.2004 I-0.015 J0.
X0.5151 Z-0.2053 I0.015 J0.
X0.4851 Z-0.2102 I-0.015 J0.
X0.5151 Z-0.2151 I0.015 J0.
X0.4851 Z-0.22 I-0.015 J0.
X0.5151 Z-0.2249 I0.015 J0.
X0.4851 Z-0.2298 I-0.015 J0.
X0.5151 Z-0.2347 I0.015 J0.
X0.4851 Z-0.2396 I-0.015 J0.
X0.5151 Z-0.2444 I0.015 J0.
X0.4851 Z-0.2493 I-0.015 J0.
X0.5151 Z-0.2542 I0.015 J0.
X0.4851 Z-0.2591 I-0.015 J0.
X0.5151 Z-0.264 I0.015 J0.
X0.4851 Z-0.2689 I-0.015 J0.
X0.5151 Z-0.2738 I0.015 J0.
X0.4851 Z-0.2787 I-0.015 J0.
X0.5151 Z-0.2836 I0.015 J0.
X0.4851 Z-0.2884 I-0.015 J0.
X0.5151 Z-0.2933 I0.015 J0.
X0.4851 Z-0.2982 I-0.015 J0.
X0.5151 Z-0.3031 I0.015 J0.
X0.4851 Z-0.308 I-0.015 J0.
X0.5151 Z-0.3129 I0.015 J0.
X0.4851 Z-0.3178 I-0.015 J0.
X0.5151 Z-0.3227 I0.015 J0.
X0.4851 Z-0.3276 I-0.015 J0.
X0.5151 Z-0.3324 I0.015 J0.
X0.4851 Z-0.3373 I-0.015 J0.
X0.5151 Z-0.3422 I0.015 J0.
X0.4851 Z-0.3471 I-0.015 J0.
X0.5151 Z-0.352 I0.015 J0.
X0.4851 Z-0.3569 I-0.015 J0.
X0.5151 Z-0.3618 I0.015 J0.
X0.4851 Z-0.3667 I-0.015 J0.
X0.5151 Z-0.3716 I0.015 J0.
X0.4851 Z-0.3764 I-0.015 J0.
X0.5151 Z-0.3813 I0.015 J0.
X0.4851 Z-0.3862 I-0.015 J0.
X0.5151 Z-0.3911 I0.015 J0.
X0.4851 Z-0.396 I-0.015 J0.
X0.5151 Z-0.4009 I0.015 J0.
X0.4851 Z-0.4058 I-0.015 J0.
X0.5151 Z-0.4107 I0.015 J0.
X0.4851 Z-0.4156 I-0.015 J0.
X0.5151 Z-0.4204 I0.015 J0.
X0.4851 Z-0.4253 I-0.015 J0.
X0.5151 Z-0.4302 I0.015 J0.
X0.4851 Z-0.4351 I-0.015 J0.
X0.5151 Z-0.44 I0.015 J0.
X0.4851 Z-0.4449 I-0.015 J0.
X0.5151 Z-0.4498 I0.015 J0.
X0.4851 Z-0.4547 I-0.015 J0.
X0.5151 Z-0.4596 I0.015 J0.
X0.4851 Z-0.4644 I-0.015 J0.
X0.5151 Z-0.4693 I0.015 J0.
X0.4851 Z-0.4742 I-0.015 J0.
X0.5151 Z-0.4791 I0.015 J0.
X0.4851 Z-0.484 I-0.015 J0.
X0.5151 Z-0.4889 I0.015 J0.
X0.4851 Z-0.4938 I-0.015 J0.
X0.5151 Z-0.4987 I0.015 J0.
X0.4851 Z-0.5036 I-0.015 J0.
X0.5151 Z-0.5084 I0.015 J0.
X0.4851 Z-0.5133 I-0.015 J0.
X0.5151 Z-0.5182 I0.015 J0.
X0.4851 Z-0.5231 I-0.015 J0.
X0.5151 Z-0.528 I0.015 J0.
X0.4851 Z-0.5329 I-0.015 J0.
X0.5151 Z-0.5378 I0.015 J0.
X0.4851 Z-0.5427 I-0.015 J0.
X0.5151 Z-0.5476 I0.015 J0.
X0.4851 Z-0.5524 I-0.015 J0.
X0.5151 Z-0.5573 I0.015 J0.
X0.4851 Z-0.5622 I-0.015 J0.
X0.5151 Z-0.5671 I0.015 J0.
X0.4851 Z-0.572 I-0.015 J0.
X0.5151 Z-0.5769 I0.015 J0.
X0.4851 Z-0.5818 I-0.015 J0.
X0.5151 Z-0.5867 I0.015 J0.
X0.4851 Z-0.5916 I-0.015 J0.
X0.5151 Z-0.5964 I0.015 J0.
X0.4851 Z-0.6013 I-0.015 J0.
X0.5151 Z-0.6062 I0.015 J0.
X0.4851 Z-0.6111 I-0.015 J0.
X0.5151 Z-0.616 I0.015 J0.
X0.4851 Z-0.6209 I-0.015 J0.
X0.5151 Z-0.6258 I0.015 J0.
X0.4851 Z-0.6307 I-0.015 J0.
X0.5151 Z-0.6356 I0.015 J0.
X0.4851 Z-0.6404 I-0.015 J0.
X0.5151 Z-0.6453 I0.015 J0.
X0.4851 Z-0.6502 I-0.015 J0.
X0.5151 Z-0.6551 I0.015 J0.
X0.4851 Z-0.66 I-0.015 J0.
X0.5151 Z-0.6649 I0.015 J0.
X0.4851 Z-0.6698 I-0.015 J0.
X0.5151 Z-0.6747 I0.015 J0.
X0.4851 Z-0.6796 I-0.015 J0.
X0.5151 Z-0.6844 I0.015 J0.
X0.4851 Z-0.6893 I-0.015 J0.
X0.5151 Z-0.6942 I0.015 J0.
X0.4851 Z-0.6991 I-0.015 J0.
X0.5151 Z-0.704 I0.015 J0.
X0.4851 Z-0.7089 I-0.015 J0.
X0.5151 Z-0.7138 I0.015 J0.
X0.4851 Z-0.7187 I-0.015 J0.
X0.5151 Z-0.7236 I0.015 J0.
X0.4851 Z-0.7284 I-0.015 J0.
X0.5151 Z-0.7333 I0.015 J0.
X0.4851 Z-0.7382 I-0.015 J0.
X0.5151 Z-0.7431 I0.015 J0.
X0.4851 Z-0.748 I-0.015 J0.
X0.5151 Z-0.7529 I0.015 J0.
X0.4851 Z-0.7578 I-0.015 J0.
X0.5151 Z-0.7627 I0.015 J0.
X0.4851 Z-0.7676 I-0.015 J0.
X0.5151 Z-0.7724 I0.015 J0.
X0.4851 Z-0.7773 I-0.015 J0.
X0.5151 Z-0.7822 I0.015 J0.
X0.4851 Z-0.7871 I-0.015 J0.
X0.5151 Z-0.792 I0.015 J0.
X0.4851 Z-0.7969 I-0.015 J0.
X0.5151 Z-0.8018 I0.015 J0.
X0.4851 Z-0.8067 I-0.015 J0.
X0.5151 Z-0.8116 I0.015 J0.
X0.5091 Y3.2734 Z-0.813 I-0.015 J0.
X0.491 Y3.2494 I-0.009 J-0.012
X0.5091 Y3.2734 I0.009 J0.012
X0.4986 Y3.2719 I-0.0045 J-0.006
G1 X0.4911 Y3.2619
G0 Z0.2
X11.5049 Y3.2689
Z0.055
G1 Z0. F216.
X11.4924
G3 X11.4849 Y3.2614 I0. J-0.0075
X11.5149 Z-0.0049 I0.015 J0.
X11.4849 Z-0.0098 I-0.015 J0.
X11.5149 Z-0.0147 I0.015 J0.
X11.4849 Z-0.0196 I-0.015 J0.
X11.5149 Z-0.0244 I0.015 J0.
X11.4849 Z-0.0293 I-0.015 J0.
X11.5149 Z-0.0342 I0.015 J0.
X11.4849 Z-0.0391 I-0.015 J0.
X11.5149 Z-0.044 I0.015 J0.
X11.4849 Z-0.0489 I-0.015 J0.
X11.5149 Z-0.0538 I0.015 J0.
X11.4849 Z-0.0587 I-0.015 J0.
X11.5149 Z-0.0636 I0.015 J0.
X11.4849 Z-0.0684 I-0.015 J0.
X11.5149 Z-0.0733 I0.015 J0.
X11.4849 Z-0.0782 I-0.015 J0.
X11.5149 Z-0.0831 I0.015 J0.
X11.4849 Z-0.088 I-0.015 J0.
X11.5149 Z-0.0929 I0.015 J0.
X11.4849 Z-0.0978 I-0.015 J0.
X11.5149 Z-0.1027 I0.015 J0.
X11.4849 Z-0.1076 I-0.015 J0.
X11.5149 Z-0.1124 I0.015 J0.
X11.4849 Z-0.1173 I-0.015 J0.
X11.5149 Z-0.1222 I0.015 J0.
X11.4849 Z-0.1271 I-0.015 J0.
X11.5149 Z-0.132 I0.015 J0.
X11.4849 Z-0.1369 I-0.015 J0.
X11.5149 Z-0.1418 I0.015 J0.
X11.4849 Z-0.1467 I-0.015 J0.
X11.5149 Z-0.1516 I0.015 J0.
X11.4849 Z-0.1564 I-0.015 J0.
X11.5149 Z-0.1613 I0.015 J0.
X11.4849 Z-0.1662 I-0.015 J0.
X11.5149 Z-0.1711 I0.015 J0.
X11.4849 Z-0.176 I-0.015 J0.
X11.5149 Z-0.1809 I0.015 J0.
X11.4849 Z-0.1858 I-0.015 J0.
X11.5149 Z-0.1907 I0.015 J0.
X11.4849 Z-0.1956 I-0.015 J0.
X11.5149 Z-0.2004 I0.015 J0.
X11.4849 Z-0.2053 I-0.015 J0.
X11.5149 Z-0.2102 I0.015 J0.
X11.4849 Z-0.2151 I-0.015 J0.
X11.5149 Z-0.22 I0.015 J0.
X11.4849 Z-0.2249 I-0.015 J0.
X11.5149 Z-0.2298 I0.015 J0.
X11.4849 Z-0.2347 I-0.015 J0.
X11.5149 Z-0.2396 I0.015 J0.
X11.4849 Z-0.2444 I-0.015 J0.
X11.5149 Z-0.2493 I0.015 J0.
X11.4849 Z-0.2542 I-0.015 J0.
X11.5149 Z-0.2591 I0.015 J0.
X11.4849 Z-0.264 I-0.015 J0.
X11.5149 Z-0.2689 I0.015 J0.
X11.4849 Z-0.2738 I-0.015 J0.
X11.5149 Z-0.2787 I0.015 J0.
X11.4849 Z-0.2836 I-0.015 J0.
X11.5149 Z-0.2884 I0.015 J0.
X11.4849 Z-0.2933 I-0.015 J0.
X11.5149 Z-0.2982 I0.015 J0.
X11.4849 Z-0.3031 I-0.015 J0.
X11.5149 Z-0.308 I0.015 J0.
X11.4849 Z-0.3129 I-0.015 J0.
X11.5149 Z-0.3178 I0.015 J0.
X11.4849 Z-0.3227 I-0.015 J0.
X11.5149 Z-0.3276 I0.015 J0.
X11.4849 Z-0.3324 I-0.015 J0.
X11.5149 Z-0.3373 I0.015 J0.
X11.4849 Z-0.3422 I-0.015 J0.
X11.5149 Z-0.3471 I0.015 J0.
X11.4849 Z-0.352 I-0.015 J0.
X11.5149 Z-0.3569 I0.015 J0.
X11.4849 Z-0.3618 I-0.015 J0.
X11.5149 Z-0.3667 I0.015 J0.
X11.4849 Z-0.3716 I-0.015 J0.
X11.5149 Z-0.3764 I0.015 J0.
X11.4849 Z-0.3813 I-0.015 J0.
X11.5149 Z-0.3862 I0.015 J0.
X11.4849 Z-0.3911 I-0.015 J0.
X11.5149 Z-0.396 I0.015 J0.
X11.4849 Z-0.4009 I-0.015 J0.
X11.5149 Z-0.4058 I0.015 J0.
X11.4849 Z-0.4107 I-0.015 J0.
X11.5149 Z-0.4156 I0.015 J0.
X11.4849 Z-0.4204 I-0.015 J0.
X11.5149 Z-0.4253 I0.015 J0.
X11.4849 Z-0.4302 I-0.015 J0.
X11.5149 Z-0.4351 I0.015 J0.
X11.4849 Z-0.44 I-0.015 J0.
X11.5149 Z-0.4449 I0.015 J0.
X11.4849 Z-0.4498 I-0.015 J0.
X11.5149 Z-0.4547 I0.015 J0.
X11.4849 Z-0.4596 I-0.015 J0.
X11.5149 Z-0.4644 I0.015 J0.
X11.4849 Z-0.4693 I-0.015 J0.
X11.5149 Z-0.4742 I0.015 J0.
X11.4849 Z-0.4791 I-0.015 J0.
X11.5149 Z-0.484 I0.015 J0.
X11.4849 Z-0.4889 I-0.015 J0.
X11.5149 Z-0.4938 I0.015 J0.
X11.4849 Z-0.4987 I-0.015 J0.
X11.5149 Z-0.5036 I0.015 J0.
X11.4849 Z-0.5084 I-0.015 J0.
X11.5149 Z-0.5133 I0.015 J0.
X11.4849 Z-0.5182 I-0.015 J0.
X11.5149 Z-0.5231 I0.015 J0.
X11.4849 Z-0.528 I-0.015 J0.
X11.5149 Z-0.5329 I0.015 J0.
X11.4849 Z-0.5378 I-0.015 J0.
X11.5149 Z-0.5427 I0.015 J0.
X11.4849 Z-0.5476 I-0.015 J0.
X11.5149 Z-0.5524 I0.015 J0.
X11.4849 Z-0.5573 I-0.015 J0.
X11.5149 Z-0.5622 I0.015 J0.
X11.4849 Z-0.5671 I-0.015 J0.
X11.5149 Z-0.572 I0.015 J0.
X11.4849 Z-0.5769 I-0.015 J0.
X11.5149 Z-0.5818 I0.015 J0.
X11.4849 Z-0.5867 I-0.015 J0.
X11.5149 Z-0.5916 I0.015 J0.
X11.4849 Z-0.5964 I-0.015 J0.
X11.5149 Z-0.6013 I0.015 J0.
X11.4849 Z-0.6062 I-0.015 J0.
X11.5149 Z-0.6111 I0.015 J0.
X11.4849 Z-0.616 I-0.015 J0.
X11.5149 Z-0.6209 I0.015 J0.
X11.4849 Z-0.6258 I-0.015 J0.
X11.5149 Z-0.6307 I0.015 J0.
X11.4849 Z-0.6356 I-0.015 J0.
X11.5149 Z-0.6404 I0.015 J0.
X11.4849 Z-0.6453 I-0.015 J0.
X11.5149 Z-0.6502 I0.015 J0.
X11.4849 Z-0.6551 I-0.015 J0.
X11.5149 Z-0.66 I0.015 J0.
X11.4849 Z-0.6649 I-0.015 J0.
X11.5149 Z-0.6698 I0.015 J0.
X11.4849 Z-0.6747 I-0.015 J0.
X11.5149 Z-0.6796 I0.015 J0.
X11.4849 Z-0.6844 I-0.015 J0.
X11.5149 Z-0.6893 I0.015 J0.
X11.4849 Z-0.6942 I-0.015 J0.
X11.5149 Z-0.6991 I0.015 J0.
X11.4849 Z-0.704 I-0.015 J0.
X11.5149 Z-0.7089 I0.015 J0.
X11.4849 Z-0.7138 I-0.015 J0.
X11.5149 Z-0.7187 I0.015 J0.
X11.4849 Z-0.7236 I-0.015 J0.
X11.5149 Z-0.7284 I0.015 J0.
X11.4849 Z-0.7333 I-0.015 J0.
X11.5149 Z-0.7382 I0.015 J0.
X11.4849 Z-0.7431 I-0.015 J0.
X11.5149 Z-0.748 I0.015 J0.
X11.4849 Z-0.7529 I-0.015 J0.
X11.5149 Z-0.7578 I0.015 J0.
X11.4849 Z-0.7627 I-0.015 J0.
X11.5149 Z-0.7676 I0.015 J0.
X11.4849 Z-0.7724 I-0.015 J0.
X11.5149 Z-0.7773 I0.015 J0.
X11.4849 Z-0.7822 I-0.015 J0.
X11.5149 Z-0.7871 I0.015 J0.
X11.4849 Z-0.792 I-0.015 J0.
X11.5149 Z-0.7969 I0.015 J0.
X11.4849 Z-0.8018 I-0.015 J0.
X11.5149 Z-0.8067 I0.015 J0.
X11.4849 Z-0.8116 I-0.015 J0.
X11.4909 Y3.2494 Z-0.813 I0.015 J0.
X11.509 Y3.2734 I0.009 J0.012
X11.4909 Y3.2494 I-0.009 J-0.012
X11.5014 Y3.2509 I0.0045 J0.006
G1 X11.5089 Y3.2609
G0 Z0.2
X11.5049 Y0.7461
Z0.055
G1 Z0. F216.
X11.4924
G3 X11.4849 Y0.7386 I0. J-0.0075
X11.5149 Z-0.0049 I0.015 J0.
X11.4849 Z-0.0098 I-0.015 J0.
X11.5149 Z-0.0147 I0.015 J0.
X11.4849 Z-0.0196 I-0.015 J0.
X11.5149 Z-0.0244 I0.015 J0.
X11.4849 Z-0.0293 I-0.015 J0.
X11.5149 Z-0.0342 I0.015 J0.
X11.4849 Z-0.0391 I-0.015 J0.
X11.5149 Z-0.044 I0.015 J0.
X11.4849 Z-0.0489 I-0.015 J0.
X11.5149 Z-0.0538 I0.015 J0.
X11.4849 Z-0.0587 I-0.015 J0.
X11.5149 Z-0.0636 I0.015 J0.
X11.4849 Z-0.0684 I-0.015 J0.
X11.5149 Z-0.0733 I0.015 J0.
X11.4849 Z-0.0782 I-0.015 J0.
X11.5149 Z-0.0831 I0.015 J0.
X11.4849 Z-0.088 I-0.015 J0.
X11.5149 Z-0.0929 I0.015 J0.
X11.4849 Z-0.0978 I-0.015 J0.
X11.5149 Z-0.1027 I0.015 J0.
X11.4849 Z-0.1076 I-0.015 J0.
X11.5149 Z-0.1124 I0.015 J0.
X11.4849 Z-0.1173 I-0.015 J0.
X11.5149 Z-0.1222 I0.015 J0.
X11.4849 Z-0.1271 I-0.015 J0.
X11.5149 Z-0.132 I0.015 J0.
X11.4849 Z-0.1369 I-0.015 J0.
X11.5149 Z-0.1418 I0.015 J0.
X11.4849 Z-0.1467 I-0.015 J0.
X11.5149 Z-0.1516 I0.015 J0.
X11.4849 Z-0.1564 I-0.015 J0.
X11.5149 Z-0.1613 I0.015 J0.
X11.4849 Z-0.1662 I-0.015 J0.
X11.5149 Z-0.1711 I0.015 J0.
X11.4849 Z-0.176 I-0.015 J0.
X11.5149 Z-0.1809 I0.015 J0.
X11.4849 Z-0.1858 I-0.015 J0.
X11.5149 Z-0.1907 I0.015 J0.
X11.4849 Z-0.1956 I-0.015 J0.
X11.5149 Z-0.2004 I0.015 J0.
X11.4849 Z-0.2053 I-0.015 J0.
X11.5149 Z-0.2102 I0.015 J0.
X11.4849 Z-0.2151 I-0.015 J0.
X11.5149 Z-0.22 I0.015 J0.
X11.4849 Z-0.2249 I-0.015 J0.
X11.5149 Z-0.2298 I0.015 J0.
X11.4849 Z-0.2347 I-0.015 J0.
X11.5149 Z-0.2396 I0.015 J0.
X11.4849 Z-0.2444 I-0.015 J0.
X11.5149 Z-0.2493 I0.015 J0.
X11.4849 Z-0.2542 I-0.015 J0.
X11.5149 Z-0.2591 I0.015 J0.
X11.4849 Z-0.264 I-0.015 J0.
X11.5149 Z-0.2689 I0.015 J0.
X11.4849 Z-0.2738 I-0.015 J0.
X11.5149 Z-0.2787 I0.015 J0.
X11.4849 Z-0.2836 I-0.015 J0.
X11.5149 Z-0.2884 I0.015 J0.
X11.4849 Z-0.2933 I-0.015 J0.
X11.5149 Z-0.2982 I0.015 J0.
X11.4849 Z-0.3031 I-0.015 J0.
X11.5149 Z-0.308 I0.015 J0.
X11.4849 Z-0.3129 I-0.015 J0.
X11.5149 Z-0.3178 I0.015 J0.
X11.4849 Z-0.3227 I-0.015 J0.
X11.5149 Z-0.3276 I0.015 J0.
X11.4849 Z-0.3324 I-0.015 J0.
X11.5149 Z-0.3373 I0.015 J0.
X11.4849 Z-0.3422 I-0.015 J0.
X11.5149 Z-0.3471 I0.015 J0.
X11.4849 Z-0.352 I-0.015 J0.
X11.5149 Z-0.3569 I0.015 J0.
X11.4849 Z-0.3618 I-0.015 J0.
X11.5149 Z-0.3667 I0.015 J0.
X11.4849 Z-0.3716 I-0.015 J0.
X11.5149 Z-0.3764 I0.015 J0.
X11.4849 Z-0.3813 I-0.015 J0.
X11.5149 Z-0.3862 I0.015 J0.
X11.4849 Z-0.3911 I-0.015 J0.
X11.5149 Z-0.396 I0.015 J0.
X11.4849 Z-0.4009 I-0.015 J0.
X11.5149 Z-0.4058 I0.015 J0.
X11.4849 Z-0.4107 I-0.015 J0.
X11.5149 Z-0.4156 I0.015 J0.
X11.4849 Z-0.4204 I-0.015 J0.
X11.5149 Z-0.4253 I0.015 J0.
X11.4849 Z-0.4302 I-0.015 J0.
X11.5149 Z-0.4351 I0.015 J0.
X11.4849 Z-0.44 I-0.015 J0.
X11.5149 Z-0.4449 I0.015 J0.
X11.4849 Z-0.4498 I-0.015 J0.
X11.5149 Z-0.4547 I0.015 J0.
X11.4849 Z-0.4596 I-0.015 J0.
X11.5149 Z-0.4644 I0.015 J0.
X11.4849 Z-0.4693 I-0.015 J0.
X11.5149 Z-0.4742 I0.015 J0.
X11.4849 Z-0.4791 I-0.015 J0.
X11.5149 Z-0.484 I0.015 J0.
X11.4849 Z-0.4889 I-0.015 J0.
X11.5149 Z-0.4938 I0.015 J0.
X11.4849 Z-0.4987 I-0.015 J0.
X11.5149 Z-0.5036 I0.015 J0.
X11.4849 Z-0.5084 I-0.015 J0.
X11.5149 Z-0.5133 I0.015 J0.
X11.4849 Z-0.5182 I-0.015 J0.
X11.5149 Z-0.5231 I0.015 J0.
X11.4849 Z-0.528 I-0.015 J0.
X11.5149 Z-0.5329 I0.015 J0.
X11.4849 Z-0.5378 I-0.015 J0.
X11.5149 Z-0.5427 I0.015 J0.
X11.4849 Z-0.5476 I-0.015 J0.
X11.5149 Z-0.5524 I0.015 J0.
X11.4849 Z-0.5573 I-0.015 J0.
X11.5149 Z-0.5622 I0.015 J0.
X11.4849 Z-0.5671 I-0.015 J0.
X11.5149 Z-0.572 I0.015 J0.
X11.4849 Z-0.5769 I-0.015 J0.
X11.5149 Z-0.5818 I0.015 J0.
X11.4849 Z-0.5867 I-0.015 J0.
X11.5149 Z-0.5916 I0.015 J0.
X11.4849 Z-0.5964 I-0.015 J0.
X11.5149 Z-0.6013 I0.015 J0.
X11.4849 Z-0.6062 I-0.015 J0.
X11.5149 Z-0.6111 I0.015 J0.
X11.4849 Z-0.616 I-0.015 J0.
X11.5149 Z-0.6209 I0.015 J0.
X11.4849 Z-0.6258 I-0.015 J0.
X11.5149 Z-0.6307 I0.015 J0.
X11.4849 Z-0.6356 I-0.015 J0.
X11.5149 Z-0.6404 I0.015 J0.
X11.4849 Z-0.6453 I-0.015 J0.
X11.5149 Z-0.6502 I0.015 J0.
X11.4849 Z-0.6551 I-0.015 J0.
X11.5149 Z-0.66 I0.015 J0.
X11.4849 Z-0.6649 I-0.015 J0.
X11.5149 Z-0.6698 I0.015 J0.
X11.4849 Z-0.6747 I-0.015 J0.
X11.5149 Z-0.6796 I0.015 J0.
X11.4849 Z-0.6844 I-0.015 J0.
X11.5149 Z-0.6893 I0.015 J0.
X11.4849 Z-0.6942 I-0.015 J0.
X11.5149 Z-0.6991 I0.015 J0.
X11.4849 Z-0.704 I-0.015 J0.
X11.5149 Z-0.7089 I0.015 J0.
X11.4849 Z-0.7138 I-0.015 J0.
X11.5149 Z-0.7187 I0.015 J0.
X11.4849 Z-0.7236 I-0.015 J0.
X11.5149 Z-0.7284 I0.015 J0.
X11.4849 Z-0.7333 I-0.015 J0.
X11.5149 Z-0.7382 I0.015 J0.
X11.4849 Z-0.7431 I-0.015 J0.
X11.5149 Z-0.748 I0.015 J0.
X11.4849 Z-0.7529 I-0.015 J0.
X11.5149 Z-0.7578 I0.015 J0.
X11.4849 Z-0.7627 I-0.015 J0.
X11.5149 Z-0.7676 I0.015 J0.
X11.4849 Z-0.7724 I-0.015 J0.
X11.5149 Z-0.7773 I0.015 J0.
X11.4849 Z-0.7822 I-0.015 J0.
X11.5149 Z-0.7871 I0.015 J0.
X11.4849 Z-0.792 I-0.015 J0.
X11.5149 Z-0.7969 I0.015 J0.
X11.4849 Z-0.8018 I-0.015 J0.
X11.5149 Z-0.8067 I0.015 J0.
X11.4849 Z-0.8116 I-0.015 J0.
X11.4909 Y0.7266 Z-0.813 I0.015 J0.
X11.509 Y0.7506 I0.009 J0.012
X11.4909 Y0.7266 I-0.009 J-0.012
X11.5014 Y0.7281 I0.0045 J0.006
G1 X11.5089 Y0.7381
G0 Z0.2
X11.4848 Y14.6689
Z0.055
G1 Z0. F216.
X11.4723
G3 X11.4648 Y14.6614 I0. J-0.0075
X11.4948 Z-0.0049 I0.015 J0.
X11.4648 Z-0.0098 I-0.015 J0.
X11.4948 Z-0.0147 I0.015 J0.
X11.4648 Z-0.0196 I-0.015 J0.
X11.4948 Z-0.0244 I0.015 J0.
X11.4648 Z-0.0293 I-0.015 J0.
X11.4948 Z-0.0342 I0.015 J0.
X11.4648 Z-0.0391 I-0.015 J0.
X11.4948 Z-0.044 I0.015 J0.
X11.4648 Z-0.0489 I-0.015 J0.
X11.4948 Z-0.0538 I0.015 J0.
X11.4648 Z-0.0587 I-0.015 J0.
X11.4948 Z-0.0636 I0.015 J0.
X11.4648 Z-0.0684 I-0.015 J0.
X11.4948 Z-0.0733 I0.015 J0.
X11.4648 Z-0.0782 I-0.015 J0.
X11.4948 Z-0.0831 I0.015 J0.
X11.4648 Z-0.088 I-0.015 J0.
X11.4948 Z-0.0929 I0.015 J0.
X11.4648 Z-0.0978 I-0.015 J0.
X11.4948 Z-0.1027 I0.015 J0.
X11.4648 Z-0.1076 I-0.015 J0.
X11.4948 Z-0.1124 I0.015 J0.
X11.4648 Z-0.1173 I-0.015 J0.
X11.4948 Z-0.1222 I0.015 J0.
X11.4648 Z-0.1271 I-0.015 J0.
X11.4948 Z-0.132 I0.015 J0.
X11.4648 Z-0.1369 I-0.015 J0.
X11.4948 Z-0.1418 I0.015 J0.
X11.4648 Z-0.1467 I-0.015 J0.
X11.4948 Z-0.1516 I0.015 J0.
X11.4648 Z-0.1564 I-0.015 J0.
X11.4948 Z-0.1613 I0.015 J0.
X11.4648 Z-0.1662 I-0.015 J0.
X11.4948 Z-0.1711 I0.015 J0.
X11.4648 Z-0.176 I-0.015 J0.
X11.4948 Z-0.1809 I0.015 J0.
X11.4648 Z-0.1858 I-0.015 J0.
X11.4948 Z-0.1907 I0.015 J0.
X11.4648 Z-0.1956 I-0.015 J0.
X11.4948 Z-0.2004 I0.015 J0.
X11.4648 Z-0.2053 I-0.015 J0.
X11.4948 Z-0.2102 I0.015 J0.
X11.4648 Z-0.2151 I-0.015 J0.
X11.4948 Z-0.22 I0.015 J0.
X11.4648 Z-0.2249 I-0.015 J0.
X11.4948 Z-0.2298 I0.015 J0.
X11.4648 Z-0.2347 I-0.015 J0.
X11.4948 Z-0.2396 I0.015 J0.
X11.4648 Z-0.2444 I-0.015 J0.
X11.4948 Z-0.2493 I0.015 J0.
X11.4648 Z-0.2542 I-0.015 J0.
X11.4948 Z-0.2591 I0.015 J0.
X11.4648 Z-0.264 I-0.015 J0.
X11.4948 Z-0.2689 I0.015 J0.
X11.4648 Z-0.2738 I-0.015 J0.
X11.4948 Z-0.2787 I0.015 J0.
X11.4648 Z-0.2836 I-0.015 J0.
X11.4948 Z-0.2884 I0.015 J0.
X11.4648 Z-0.2933 I-0.015 J0.
X11.4948 Z-0.2982 I0.015 J0.
X11.4648 Z-0.3031 I-0.015 J0.
X11.4948 Z-0.308 I0.015 J0.
X11.4648 Z-0.3129 I-0.015 J0.
X11.4948 Z-0.3178 I0.015 J0.
X11.4648 Z-0.3227 I-0.015 J0.
X11.4948 Z-0.3276 I0.015 J0.
X11.4648 Z-0.3324 I-0.015 J0.
X11.4948 Z-0.3373 I0.015 J0.
X11.4648 Z-0.3422 I-0.015 J0.
X11.4948 Z-0.3471 I0.015 J0.
X11.4648 Z-0.352 I-0.015 J0.
X11.4948 Z-0.3569 I0.015 J0.
X11.4648 Z-0.3618 I-0.015 J0.
X11.4948 Z-0.3667 I0.015 J0.
X11.4648 Z-0.3716 I-0.015 J0.
X11.4948 Z-0.3764 I0.015 J0.
X11.4648 Z-0.3813 I-0.015 J0.
X11.4948 Z-0.3862 I0.015 J0.
X11.4648 Z-0.3911 I-0.015 J0.
X11.4948 Z-0.396 I0.015 J0.
X11.4648 Z-0.4009 I-0.015 J0.
X11.4948 Z-0.4058 I0.015 J0.
X11.4648 Z-0.4107 I-0.015 J0.
X11.4948 Z-0.4156 I0.015 J0.
X11.4648 Z-0.4204 I-0.015 J0.
X11.4948 Z-0.4253 I0.015 J0.
X11.4648 Z-0.4302 I-0.015 J0.
X11.4948 Z-0.4351 I0.015 J0.
X11.4648 Z-0.44 I-0.015 J0.
X11.4948 Z-0.4449 I0.015 J0.
X11.4648 Z-0.4498 I-0.015 J0.
X11.4948 Z-0.4547 I0.015 J0.
X11.4648 Z-0.4596 I-0.015 J0.
X11.4948 Z-0.4644 I0.015 J0.
X11.4648 Z-0.4693 I-0.015 J0.
X11.4948 Z-0.4742 I0.015 J0.
X11.4648 Z-0.4791 I-0.015 J0.
X11.4948 Z-0.484 I0.015 J0.
X11.4648 Z-0.4889 I-0.015 J0.
X11.4948 Z-0.4938 I0.015 J0.
X11.4648 Z-0.4987 I-0.015 J0.
X11.4948 Z-0.5036 I0.015 J0.
X11.4648 Z-0.5084 I-0.015 J0.
X11.4948 Z-0.5133 I0.015 J0.
X11.4648 Z-0.5182 I-0.015 J0.
X11.4948 Z-0.5231 I0.015 J0.
X11.4648 Z-0.528 I-0.015 J0.
X11.4948 Z-0.5329 I0.015 J0.
X11.4648 Z-0.5378 I-0.015 J0.
X11.4948 Z-0.5427 I0.015 J0.
X11.4648 Z-0.5476 I-0.015 J0.
X11.4948 Z-0.5524 I0.015 J0.
X11.4648 Z-0.5573 I-0.015 J0.
X11.4948 Z-0.5622 I0.015 J0.
X11.4648 Z-0.5671 I-0.015 J0.
X11.4948 Z-0.572 I0.015 J0.
X11.4648 Z-0.5769 I-0.015 J0.
X11.4948 Z-0.5818 I0.015 J0.
X11.4648 Z-0.5867 I-0.015 J0.
X11.4948 Z-0.5916 I0.015 J0.
X11.4648 Z-0.5964 I-0.015 J0.
X11.4948 Z-0.6013 I0.015 J0.
X11.4648 Z-0.6062 I-0.015 J0.
X11.4948 Z-0.6111 I0.015 J0.
X11.4648 Z-0.616 I-0.015 J0.
X11.4948 Z-0.6209 I0.015 J0.
X11.4648 Z-0.6258 I-0.015 J0.
X11.4948 Z-0.6307 I0.015 J0.
X11.4648 Z-0.6356 I-0.015 J0.
X11.4948 Z-0.6404 I0.015 J0.
X11.4648 Z-0.6453 I-0.015 J0.
X11.4948 Z-0.6502 I0.015 J0.
X11.4648 Z-0.6551 I-0.015 J0.
X11.4948 Z-0.66 I0.015 J0.
X11.4648 Z-0.6649 I-0.015 J0.
X11.4948 Z-0.6698 I0.015 J0.
X11.4648 Z-0.6747 I-0.015 J0.
X11.4948 Z-0.6796 I0.015 J0.
X11.4648 Z-0.6844 I-0.015 J0.
X11.4948 Z-0.6893 I0.015 J0.
X11.4648 Z-0.6942 I-0.015 J0.
X11.4948 Z-0.6991 I0.015 J0.
X11.4648 Z-0.704 I-0.015 J0.
X11.4948 Z-0.7089 I0.015 J0.
X11.4648 Z-0.7138 I-0.015 J0.
X11.4948 Z-0.7187 I0.015 J0.
X11.4648 Z-0.7236 I-0.015 J0.
X11.4948 Z-0.7284 I0.015 J0.
X11.4648 Z-0.7333 I-0.015 J0.
X11.4948 Z-0.7382 I0.015 J0.
X11.4648 Z-0.7431 I-0.015 J0.
X11.4948 Z-0.748 I0.015 J0.
X11.4648 Z-0.7529 I-0.015 J0.
X11.4948 Z-0.7578 I0.015 J0.
X11.4648 Z-0.7627 I-0.015 J0.
X11.4948 Z-0.7676 I0.015 J0.
X11.4648 Z-0.7724 I-0.015 J0.
X11.4948 Z-0.7773 I0.015 J0.
X11.4648 Z-0.7822 I-0.015 J0.
X11.4948 Z-0.7871 I0.015 J0.
X11.4648 Z-0.792 I-0.015 J0.
X11.4948 Z-0.7969 I0.015 J0.
X11.4648 Z-0.8018 I-0.015 J0.
X11.4948 Z-0.8067 I0.015 J0.
X11.4648 Z-0.8116 I-0.015 J0.
X11.4708 Y14.6494 Z-0.813 I0.015 J0.
X11.4888 Y14.6733 I0.009 J0.012
X11.4708 Y14.6494 I-0.009 J-0.012
X11.4813 Y14.6509 I0.0045 J0.006
G1 X11.4888 Y14.6608
G0 Z0.2
X11.4848 Y17.346
Z0.055
G1 Z0. F216.
X11.4723
G3 X11.4648 Y17.3385 I0. J-0.0075
X11.4948 Z-0.0049 I0.015 J0.
X11.4648 Z-0.0098 I-0.015 J0.
X11.4948 Z-0.0147 I0.015 J0.
X11.4648 Z-0.0196 I-0.015 J0.
X11.4948 Z-0.0244 I0.015 J0.
X11.4648 Z-0.0293 I-0.015 J0.
X11.4948 Z-0.0342 I0.015 J0.
X11.4648 Z-0.0391 I-0.015 J0.
X11.4948 Z-0.044 I0.015 J0.
X11.4648 Z-0.0489 I-0.015 J0.
X11.4948 Z-0.0538 I0.015 J0.
X11.4648 Z-0.0587 I-0.015 J0.
X11.4948 Z-0.0636 I0.015 J0.
X11.4648 Z-0.0684 I-0.015 J0.
X11.4948 Z-0.0733 I0.015 J0.
X11.4648 Z-0.0782 I-0.015 J0.
X11.4948 Z-0.0831 I0.015 J0.
X11.4648 Z-0.088 I-0.015 J0.
X11.4948 Z-0.0929 I0.015 J0.
X11.4648 Z-0.0978 I-0.015 J0.
X11.4948 Z-0.1027 I0.015 J0.
X11.4648 Z-0.1076 I-0.015 J0.
X11.4948 Z-0.1124 I0.015 J0.
X11.4648 Z-0.1173 I-0.015 J0.
X11.4948 Z-0.1222 I0.015 J0.
X11.4648 Z-0.1271 I-0.015 J0.
X11.4948 Z-0.132 I0.015 J0.
X11.4648 Z-0.1369 I-0.015 J0.
X11.4948 Z-0.1418 I0.015 J0.
X11.4648 Z-0.1467 I-0.015 J0.
X11.4948 Z-0.1516 I0.015 J0.
X11.4648 Z-0.1564 I-0.015 J0.
X11.4948 Z-0.1613 I0.015 J0.
X11.4648 Z-0.1662 I-0.015 J0.
X11.4948 Z-0.1711 I0.015 J0.
X11.4648 Z-0.176 I-0.015 J0.
X11.4948 Z-0.1809 I0.015 J0.
X11.4648 Z-0.1858 I-0.015 J0.
X11.4948 Z-0.1907 I0.015 J0.
X11.4648 Z-0.1956 I-0.015 J0.
X11.4948 Z-0.2004 I0.015 J0.
X11.4648 Z-0.2053 I-0.015 J0.
X11.4948 Z-0.2102 I0.015 J0.
X11.4648 Z-0.2151 I-0.015 J0.
X11.4948 Z-0.22 I0.015 J0.
X11.4648 Z-0.2249 I-0.015 J0.
X11.4948 Z-0.2298 I0.015 J0.
X11.4648 Z-0.2347 I-0.015 J0.
X11.4948 Z-0.2396 I0.015 J0.
X11.4648 Z-0.2444 I-0.015 J0.
X11.4948 Z-0.2493 I0.015 J0.
X11.4648 Z-0.2542 I-0.015 J0.
X11.4948 Z-0.2591 I0.015 J0.
X11.4648 Z-0.264 I-0.015 J0.
X11.4948 Z-0.2689 I0.015 J0.
X11.4648 Z-0.2738 I-0.015 J0.
X11.4948 Z-0.2787 I0.015 J0.
X11.4648 Z-0.2836 I-0.015 J0.
X11.4948 Z-0.2884 I0.015 J0.
X11.4648 Z-0.2933 I-0.015 J0.
X11.4948 Z-0.2982 I0.015 J0.
X11.4648 Z-0.3031 I-0.015 J0.
X11.4948 Z-0.308 I0.015 J0.
X11.4648 Z-0.3129 I-0.015 J0.
X11.4948 Z-0.3178 I0.015 J0.
X11.4648 Z-0.3227 I-0.015 J0.
X11.4948 Z-0.3276 I0.015 J0.
X11.4648 Z-0.3324 I-0.015 J0.
X11.4948 Z-0.3373 I0.015 J0.
X11.4648 Z-0.3422 I-0.015 J0.
X11.4948 Z-0.3471 I0.015 J0.
X11.4648 Z-0.352 I-0.015 J0.
X11.4948 Z-0.3569 I0.015 J0.
X11.4648 Z-0.3618 I-0.015 J0.
X11.4948 Z-0.3667 I0.015 J0.
X11.4648 Z-0.3716 I-0.015 J0.
X11.4948 Z-0.3764 I0.015 J0.
X11.4648 Z-0.3813 I-0.015 J0.
X11.4948 Z-0.3862 I0.015 J0.
X11.4648 Z-0.3911 I-0.015 J0.
X11.4948 Z-0.396 I0.015 J0.
X11.4648 Z-0.4009 I-0.015 J0.
X11.4948 Z-0.4058 I0.015 J0.
X11.4648 Z-0.4107 I-0.015 J0.
X11.4948 Z-0.4156 I0.015 J0.
X11.4648 Z-0.4204 I-0.015 J0.
X11.4948 Z-0.4253 I0.015 J0.
X11.4648 Z-0.4302 I-0.015 J0.
X11.4948 Z-0.4351 I0.015 J0.
X11.4648 Z-0.44 I-0.015 J0.
X11.4948 Z-0.4449 I0.015 J0.
X11.4648 Z-0.4498 I-0.015 J0.
X11.4948 Z-0.4547 I0.015 J0.
X11.4648 Z-0.4596 I-0.015 J0.
X11.4948 Z-0.4644 I0.015 J0.
X11.4648 Z-0.4693 I-0.015 J0.
X11.4948 Z-0.4742 I0.015 J0.
X11.4648 Z-0.4791 I-0.015 J0.
X11.4948 Z-0.484 I0.015 J0.
X11.4648 Z-0.4889 I-0.015 J0.
X11.4948 Z-0.4938 I0.015 J0.
X11.4648 Z-0.4987 I-0.015 J0.
X11.4948 Z-0.5036 I0.015 J0.
X11.4648 Z-0.5084 I-0.015 J0.
X11.4948 Z-0.5133 I0.015 J0.
X11.4648 Z-0.5182 I-0.015 J0.
X11.4948 Z-0.5231 I0.015 J0.
X11.4648 Z-0.528 I-0.015 J0.
X11.4948 Z-0.5329 I0.015 J0.
X11.4648 Z-0.5378 I-0.015 J0.
X11.4948 Z-0.5427 I0.015 J0.
X11.4648 Z-0.5476 I-0.015 J0.
X11.4948 Z-0.5524 I0.015 J0.
X11.4648 Z-0.5573 I-0.015 J0.
X11.4948 Z-0.5622 I0.015 J0.
X11.4648 Z-0.5671 I-0.015 J0.
X11.4948 Z-0.572 I0.015 J0.
X11.4648 Z-0.5769 I-0.015 J0.
X11.4948 Z-0.5818 I0.015 J0.
X11.4648 Z-0.5867 I-0.015 J0.
X11.4948 Z-0.5916 I0.015 J0.
X11.4648 Z-0.5964 I-0.015 J0.
X11.4948 Z-0.6013 I0.015 J0.
X11.4648 Z-0.6062 I-0.015 J0.
X11.4948 Z-0.6111 I0.015 J0.
X11.4648 Z-0.616 I-0.015 J0.
X11.4948 Z-0.6209 I0.015 J0.
X11.4648 Z-0.6258 I-0.015 J0.
X11.4948 Z-0.6307 I0.015 J0.
X11.4648 Z-0.6356 I-0.015 J0.
X11.4948 Z-0.6404 I0.015 J0.
X11.4648 Z-0.6453 I-0.015 J0.
X11.4948 Z-0.6502 I0.015 J0.
X11.4648 Z-0.6551 I-0.015 J0.
X11.4948 Z-0.66 I0.015 J0.
X11.4648 Z-0.6649 I-0.015 J0.
X11.4948 Z-0.6698 I0.015 J0.
X11.4648 Z-0.6747 I-0.015 J0.
X11.4948 Z-0.6796 I0.015 J0.
X11.4648 Z-0.6844 I-0.015 J0.
X11.4948 Z-0.6893 I0.015 J0.
X11.4648 Z-0.6942 I-0.015 J0.
X11.4948 Z-0.6991 I0.015 J0.
X11.4648 Z-0.704 I-0.015 J0.
X11.4948 Z-0.7089 I0.015 J0.
X11.4648 Z-0.7138 I-0.015 J0.
X11.4948 Z-0.7187 I0.015 J0.
X11.4648 Z-0.7236 I-0.015 J0.
X11.4948 Z-0.7284 I0.015 J0.
X11.4648 Z-0.7333 I-0.015 J0.
X11.4948 Z-0.7382 I0.015 J0.
X11.4648 Z-0.7431 I-0.015 J0.
X11.4948 Z-0.748 I0.015 J0.
X11.4648 Z-0.7529 I-0.015 J0.
X11.4948 Z-0.7578 I0.015 J0.
X11.4648 Z-0.7627 I-0.015 J0.
X11.4948 Z-0.7676 I0.015 J0.
X11.4648 Z-0.7724 I-0.015 J0.
X11.4948 Z-0.7773 I0.015 J0.
X11.4648 Z-0.7822 I-0.015 J0.
X11.4948 Z-0.7871 I0.015 J0.
X11.4648 Z-0.792 I-0.015 J0.
X11.4948 Z-0.7969 I0.015 J0.
X11.4648 Z-0.8018 I-0.015 J0.
X11.4948 Z-0.8067 I0.015 J0.
X11.4648 Z-0.8116 I-0.015 J0.
X11.4708 Y17.3265 Z-0.813 I0.015 J0.
X11.4888 Y17.3505 I0.009 J0.012
X11.4708 Y17.3265 I-0.009 J-0.012
X11.4813 Y17.328 I0.0045 J0.006
G1 X11.4888 Y17.338
G0 Z0.2
X0.5252 Y17.346
Z0.055
G1 Z0. F216.
X0.5127
G3 X0.5052 Y17.3385 I0. J-0.0075
X0.5352 Z-0.0049 I0.015 J0.
X0.5052 Z-0.0098 I-0.015 J0.
X0.5352 Z-0.0147 I0.015 J0.
X0.5052 Z-0.0196 I-0.015 J0.
X0.5352 Z-0.0244 I0.015 J0.
X0.5052 Z-0.0293 I-0.015 J0.
X0.5352 Z-0.0342 I0.015 J0.
X0.5052 Z-0.0391 I-0.015 J0.
X0.5352 Z-0.044 I0.015 J0.
X0.5052 Z-0.0489 I-0.015 J0.
X0.5352 Z-0.0538 I0.015 J0.
X0.5052 Z-0.0587 I-0.015 J0.
X0.5352 Z-0.0636 I0.015 J0.
X0.5052 Z-0.0684 I-0.015 J0.
X0.5352 Z-0.0733 I0.015 J0.
X0.5052 Z-0.0782 I-0.015 J0.
X0.5352 Z-0.0831 I0.015 J0.
X0.5052 Z-0.088 I-0.015 J0.
X0.5352 Z-0.0929 I0.015 J0.
X0.5052 Z-0.0978 I-0.015 J0.
X0.5352 Z-0.1027 I0.015 J0.
X0.5052 Z-0.1076 I-0.015 J0.
X0.5352 Z-0.1124 I0.015 J0.
X0.5052 Z-0.1173 I-0.015 J0.
X0.5352 Z-0.1222 I0.015 J0.
X0.5052 Z-0.1271 I-0.015 J0.
X0.5352 Z-0.132 I0.015 J0.
X0.5052 Z-0.1369 I-0.015 J0.
X0.5352 Z-0.1418 I0.015 J0.
X0.5052 Z-0.1467 I-0.015 J0.
X0.5352 Z-0.1516 I0.015 J0.
X0.5052 Z-0.1564 I-0.015 J0.
X0.5352 Z-0.1613 I0.015 J0.
X0.5052 Z-0.1662 I-0.015 J0.
X0.5352 Z-0.1711 I0.015 J0.
X0.5052 Z-0.176 I-0.015 J0.
X0.5352 Z-0.1809 I0.015 J0.
X0.5052 Z-0.1858 I-0.015 J0.
X0.5352 Z-0.1907 I0.015 J0.
X0.5052 Z-0.1956 I-0.015 J0.
X0.5352 Z-0.2004 I0.015 J0.
X0.5052 Z-0.2053 I-0.015 J0.
X0.5352 Z-0.2102 I0.015 J0.
X0.5052 Z-0.2151 I-0.015 J0.
X0.5352 Z-0.22 I0.015 J0.
X0.5052 Z-0.2249 I-0.015 J0.
X0.5352 Z-0.2298 I0.015 J0.
X0.5052 Z-0.2347 I-0.015 J0.
X0.5352 Z-0.2396 I0.015 J0.
X0.5052 Z-0.2444 I-0.015 J0.
X0.5352 Z-0.2493 I0.015 J0.
X0.5052 Z-0.2542 I-0.015 J0.
X0.5352 Z-0.2591 I0.015 J0.
X0.5052 Z-0.264 I-0.015 J0.
X0.5352 Z-0.2689 I0.015 J0.
X0.5052 Z-0.2738 I-0.015 J0.
X0.5352 Z-0.2787 I0.015 J0.
X0.5052 Z-0.2836 I-0.015 J0.
X0.5352 Z-0.2884 I0.015 J0.
X0.5052 Z-0.2933 I-0.015 J0.
X0.5352 Z-0.2982 I0.015 J0.
X0.5052 Z-0.3031 I-0.015 J0.
X0.5352 Z-0.308 I0.015 J0.
X0.5052 Z-0.3129 I-0.015 J0.
X0.5352 Z-0.3178 I0.015 J0.
X0.5052 Z-0.3227 I-0.015 J0.
X0.5352 Z-0.3276 I0.015 J0.
X0.5052 Z-0.3324 I-0.015 J0.
X0.5352 Z-0.3373 I0.015 J0.
X0.5052 Z-0.3422 I-0.015 J0.
X0.5352 Z-0.3471 I0.015 J0.
X0.5052 Z-0.352 I-0.015 J0.
X0.5352 Z-0.3569 I0.015 J0.
X0.5052 Z-0.3618 I-0.015 J0.
X0.5352 Z-0.3667 I0.015 J0.
X0.5052 Z-0.3716 I-0.015 J0.
X0.5352 Z-0.3764 I0.015 J0.
X0.5052 Z-0.3813 I-0.015 J0.
X0.5352 Z-0.3862 I0.015 J0.
X0.5052 Z-0.3911 I-0.015 J0.
X0.5352 Z-0.396 I0.015 J0.
X0.5052 Z-0.4009 I-0.015 J0.
X0.5352 Z-0.4058 I0.015 J0.
X0.5052 Z-0.4107 I-0.015 J0.
X0.5352 Z-0.4156 I0.015 J0.
X0.5052 Z-0.4204 I-0.015 J0.
X0.5352 Z-0.4253 I0.015 J0.
X0.5052 Z-0.4302 I-0.015 J0.
X0.5352 Z-0.4351 I0.015 J0.
X0.5052 Z-0.44 I-0.015 J0.
X0.5352 Z-0.4449 I0.015 J0.
X0.5052 Z-0.4498 I-0.015 J0.
X0.5352 Z-0.4547 I0.015 J0.
X0.5052 Z-0.4596 I-0.015 J0.
X0.5352 Z-0.4644 I0.015 J0.
X0.5052 Z-0.4693 I-0.015 J0.
X0.5352 Z-0.4742 I0.015 J0.
X0.5052 Z-0.4791 I-0.015 J0.
X0.5352 Z-0.484 I0.015 J0.
X0.5052 Z-0.4889 I-0.015 J0.
X0.5352 Z-0.4938 I0.015 J0.
X0.5052 Z-0.4987 I-0.015 J0.
X0.5352 Z-0.5036 I0.015 J0.
X0.5052 Z-0.5084 I-0.015 J0.
X0.5352 Z-0.5133 I0.015 J0.
X0.5052 Z-0.5182 I-0.015 J0.
X0.5352 Z-0.5231 I0.015 J0.
X0.5052 Z-0.528 I-0.015 J0.
X0.5352 Z-0.5329 I0.015 J0.
X0.5052 Z-0.5378 I-0.015 J0.
X0.5352 Z-0.5427 I0.015 J0.
X0.5052 Z-0.5476 I-0.015 J0.
X0.5352 Z-0.5524 I0.015 J0.
X0.5052 Z-0.5573 I-0.015 J0.
X0.5352 Z-0.5622 I0.015 J0.
X0.5052 Z-0.5671 I-0.015 J0.
X0.5352 Z-0.572 I0.015 J0.
X0.5052 Z-0.5769 I-0.015 J0.
X0.5352 Z-0.5818 I0.015 J0.
X0.5052 Z-0.5867 I-0.015 J0.
X0.5352 Z-0.5916 I0.015 J0.
X0.5052 Z-0.5964 I-0.015 J0.
X0.5352 Z-0.6013 I0.015 J0.
X0.5052 Z-0.6062 I-0.015 J0.
X0.5352 Z-0.6111 I0.015 J0.
X0.5052 Z-0.616 I-0.015 J0.
X0.5352 Z-0.6209 I0.015 J0.
X0.5052 Z-0.6258 I-0.015 J0.
X0.5352 Z-0.6307 I0.015 J0.
X0.5052 Z-0.6356 I-0.015 J0.
X0.5352 Z-0.6404 I0.015 J0.
X0.5052 Z-0.6453 I-0.015 J0.
X0.5352 Z-0.6502 I0.015 J0.
X0.5052 Z-0.6551 I-0.015 J0.
X0.5352 Z-0.66 I0.015 J0.
X0.5052 Z-0.6649 I-0.015 J0.
X0.5352 Z-0.6698 I0.015 J0.
X0.5052 Z-0.6747 I-0.015 J0.
X0.5352 Z-0.6796 I0.015 J0.
X0.5052 Z-0.6844 I-0.015 J0.
X0.5352 Z-0.6893 I0.015 J0.
X0.5052 Z-0.6942 I-0.015 J0.
X0.5352 Z-0.6991 I0.015 J0.
X0.5052 Z-0.704 I-0.015 J0.
X0.5352 Z-0.7089 I0.015 J0.
X0.5052 Z-0.7138 I-0.015 J0.
X0.5352 Z-0.7187 I0.015 J0.
X0.5052 Z-0.7236 I-0.015 J0.
X0.5352 Z-0.7284 I0.015 J0.
X0.5052 Z-0.7333 I-0.015 J0.
X0.5352 Z-0.7382 I0.015 J0.
X0.5052 Z-0.7431 I-0.015 J0.
X0.5352 Z-0.748 I0.015 J0.
X0.5052 Z-0.7529 I-0.015 J0.
X0.5352 Z-0.7578 I0.015 J0.
X0.5052 Z-0.7627 I-0.015 J0.
X0.5352 Z-0.7676 I0.015 J0.
X0.5052 Z-0.7724 I-0.015 J0.
X0.5352 Z-0.7773 I0.015 J0.
X0.5052 Z-0.7822 I-0.015 J0.
X0.5352 Z-0.7871 I0.015 J0.
X0.5052 Z-0.792 I-0.015 J0.
X0.5352 Z-0.7969 I0.015 J0.
X0.5052 Z-0.8018 I-0.015 J0.
X0.5352 Z-0.8067 I0.015 J0.
X0.5052 Z-0.8116 I-0.015 J0.
X0.5112 Y17.3265 Z-0.813 I0.015 J0.
X0.5292 Y17.3505 I0.009 J0.012
X0.5112 Y17.3265 I-0.009 J-0.012
X0.5217 Y17.328 I0.0045 J0.006
G1 X0.5292 Y17.338
G0 Z0.2
X0.5252 Y14.6689
Z0.055
G1 Z0. F216.
X0.5127
G3 X0.5052 Y14.6614 I0. J-0.0075
X0.5352 Z-0.0049 I0.015 J0.
X0.5052 Z-0.0098 I-0.015 J0.
X0.5352 Z-0.0147 I0.015 J0.
X0.5052 Z-0.0196 I-0.015 J0.
X0.5352 Z-0.0244 I0.015 J0.
X0.5052 Z-0.0293 I-0.015 J0.
X0.5352 Z-0.0342 I0.015 J0.
X0.5052 Z-0.0391 I-0.015 J0.
X0.5352 Z-0.044 I0.015 J0.
X0.5052 Z-0.0489 I-0.015 J0.
X0.5352 Z-0.0538 I0.015 J0.
X0.5052 Z-0.0587 I-0.015 J0.
X0.5352 Z-0.0636 I0.015 J0.
X0.5052 Z-0.0684 I-0.015 J0.
X0.5352 Z-0.0733 I0.015 J0.
X0.5052 Z-0.0782 I-0.015 J0.
X0.5352 Z-0.0831 I0.015 J0.
X0.5052 Z-0.088 I-0.015 J0.
X0.5352 Z-0.0929 I0.015 J0.
X0.5052 Z-0.0978 I-0.015 J0.
X0.5352 Z-0.1027 I0.015 J0.
X0.5052 Z-0.1076 I-0.015 J0.
X0.5352 Z-0.1124 I0.015 J0.
X0.5052 Z-0.1173 I-0.015 J0.
X0.5352 Z-0.1222 I0.015 J0.
X0.5052 Z-0.1271 I-0.015 J0.
X0.5352 Z-0.132 I0.015 J0.
X0.5052 Z-0.1369 I-0.015 J0.
X0.5352 Z-0.1418 I0.015 J0.
X0.5052 Z-0.1467 I-0.015 J0.
X0.5352 Z-0.1516 I0.015 J0.
X0.5052 Z-0.1564 I-0.015 J0.
X0.5352 Z-0.1613 I0.015 J0.
X0.5052 Z-0.1662 I-0.015 J0.
X0.5352 Z-0.1711 I0.015 J0.
X0.5052 Z-0.176 I-0.015 J0.
X0.5352 Z-0.1809 I0.015 J0.
X0.5052 Z-0.1858 I-0.015 J0.
X0.5352 Z-0.1907 I0.015 J0.
X0.5052 Z-0.1956 I-0.015 J0.
X0.5352 Z-0.2004 I0.015 J0.
X0.5052 Z-0.2053 I-0.015 J0.
X0.5352 Z-0.2102 I0.015 J0.
X0.5052 Z-0.2151 I-0.015 J0.
X0.5352 Z-0.22 I0.015 J0.
X0.5052 Z-0.2249 I-0.015 J0.
X0.5352 Z-0.2298 I0.015 J0.
X0.5052 Z-0.2347 I-0.015 J0.
X0.5352 Z-0.2396 I0.015 J0.
X0.5052 Z-0.2444 I-0.015 J0.
X0.5352 Z-0.2493 I0.015 J0.
X0.5052 Z-0.2542 I-0.015 J0.
X0.5352 Z-0.2591 I0.015 J0.
X0.5052 Z-0.264 I-0.015 J0.
X0.5352 Z-0.2689 I0.015 J0.
X0.5052 Z-0.2738 I-0.015 J0.
X0.5352 Z-0.2787 I0.015 J0.
X0.5052 Z-0.2836 I-0.015 J0.
X0.5352 Z-0.2884 I0.015 J0.
X0.5052 Z-0.2933 I-0.015 J0.
X0.5352 Z-0.2982 I0.015 J0.
X0.5052 Z-0.3031 I-0.015 J0.
X0.5352 Z-0.308 I0.015 J0.
X0.5052 Z-0.3129 I-0.015 J0.
X0.5352 Z-0.3178 I0.015 J0.
X0.5052 Z-0.3227 I-0.015 J0.
X0.5352 Z-0.3276 I0.015 J0.
X0.5052 Z-0.3324 I-0.015 J0.
X0.5352 Z-0.3373 I0.015 J0.
X0.5052 Z-0.3422 I-0.015 J0.
X0.5352 Z-0.3471 I0.015 J0.
X0.5052 Z-0.352 I-0.015 J0.
X0.5352 Z-0.3569 I0.015 J0.
X0.5052 Z-0.3618 I-0.015 J0.
X0.5352 Z-0.3667 I0.015 J0.
X0.5052 Z-0.3716 I-0.015 J0.
X0.5352 Z-0.3764 I0.015 J0.
X0.5052 Z-0.3813 I-0.015 J0.
X0.5352 Z-0.3862 I0.015 J0.
X0.5052 Z-0.3911 I-0.015 J0.
X0.5352 Z-0.396 I0.015 J0.
X0.5052 Z-0.4009 I-0.015 J0.
X0.5352 Z-0.4058 I0.015 J0.
X0.5052 Z-0.4107 I-0.015 J0.
X0.5352 Z-0.4156 I0.015 J0.
X0.5052 Z-0.4204 I-0.015 J0.
X0.5352 Z-0.4253 I0.015 J0.
X0.5052 Z-0.4302 I-0.015 J0.
X0.5352 Z-0.4351 I0.015 J0.
X0.5052 Z-0.44 I-0.015 J0.
X0.5352 Z-0.4449 I0.015 J0.
X0.5052 Z-0.4498 I-0.015 J0.
X0.5352 Z-0.4547 I0.015 J0.
X0.5052 Z-0.4596 I-0.015 J0.
X0.5352 Z-0.4644 I0.015 J0.
X0.5052 Z-0.4693 I-0.015 J0.
X0.5352 Z-0.4742 I0.015 J0.
X0.5052 Z-0.4791 I-0.015 J0.
X0.5352 Z-0.484 I0.015 J0.
X0.5052 Z-0.4889 I-0.015 J0.
X0.5352 Z-0.4938 I0.015 J0.
X0.5052 Z-0.4987 I-0.015 J0.
X0.5352 Z-0.5036 I0.015 J0.
X0.5052 Z-0.5084 I-0.015 J0.
X0.5352 Z-0.5133 I0.015 J0.
X0.5052 Z-0.5182 I-0.015 J0.
X0.5352 Z-0.5231 I0.015 J0.
X0.5052 Z-0.528 I-0.015 J0.
X0.5352 Z-0.5329 I0.015 J0.
X0.5052 Z-0.5378 I-0.015 J0.
X0.5352 Z-0.5427 I0.015 J0.
X0.5052 Z-0.5476 I-0.015 J0.
X0.5352 Z-0.5524 I0.015 J0.
X0.5052 Z-0.5573 I-0.015 J0.
X0.5352 Z-0.5622 I0.015 J0.
X0.5052 Z-0.5671 I-0.015 J0.
X0.5352 Z-0.572 I0.015 J0.
X0.5052 Z-0.5769 I-0.015 J0.
X0.5352 Z-0.5818 I0.015 J0.
X0.5052 Z-0.5867 I-0.015 J0.
X0.5352 Z-0.5916 I0.015 J0.
X0.5052 Z-0.5964 I-0.015 J0.
X0.5352 Z-0.6013 I0.015 J0.
X0.5052 Z-0.6062 I-0.015 J0.
X0.5352 Z-0.6111 I0.015 J0.
X0.5052 Z-0.616 I-0.015 J0.
X0.5352 Z-0.6209 I0.015 J0.
X0.5052 Z-0.6258 I-0.015 J0.
X0.5352 Z-0.6307 I0.015 J0.
X0.5052 Z-0.6356 I-0.015 J0.
X0.5352 Z-0.6404 I0.015 J0.
X0.5052 Z-0.6453 I-0.015 J0.
X0.5352 Z-0.6502 I0.015 J0.
X0.5052 Z-0.6551 I-0.015 J0.
X0.5352 Z-0.66 I0.015 J0.
X0.5052 Z-0.6649 I-0.015 J0.
X0.5352 Z-0.6698 I0.015 J0.
X0.5052 Z-0.6747 I-0.015 J0.
X0.5352 Z-0.6796 I0.015 J0.
X0.5052 Z-0.6844 I-0.015 J0.
X0.5352 Z-0.6893 I0.015 J0.
X0.5052 Z-0.6942 I-0.015 J0.
X0.5352 Z-0.6991 I0.015 J0.
X0.5052 Z-0.704 I-0.015 J0.
X0.5352 Z-0.7089 I0.015 J0.
X0.5052 Z-0.7138 I-0.015 J0.
X0.5352 Z-0.7187 I0.015 J0.
X0.5052 Z-0.7236 I-0.015 J0.
X0.5352 Z-0.7284 I0.015 J0.
X0.5052 Z-0.7333 I-0.015 J0.
X0.5352 Z-0.7382 I0.015 J0.
X0.5052 Z-0.7431 I-0.015 J0.
X0.5352 Z-0.748 I0.015 J0.
X0.5052 Z-0.7529 I-0.015 J0.
X0.5352 Z-0.7578 I0.015 J0.
X0.5052 Z-0.7627 I-0.015 J0.
X0.5352 Z-0.7676 I0.015 J0.
X0.5052 Z-0.7724 I-0.015 J0.
X0.5352 Z-0.7773 I0.015 J0.
X0.5052 Z-0.7822 I-0.015 J0.
X0.5352 Z-0.7871 I0.015 J0.
X0.5052 Z-0.792 I-0.015 J0.
X0.5352 Z-0.7969 I0.015 J0.
X0.5052 Z-0.8018 I-0.015 J0.
X0.5352 Z-0.8067 I0.015 J0.
X0.5052 Z-0.8116 I-0.015 J0.
X0.5112 Y14.6494 Z-0.813 I0.015 J0.
X0.5292 Y14.6733 I0.009 J0.012
X0.5112 Y14.6494 I-0.009 J-0.012
X0.5217 Y14.6509 I0.0045 J0.006
G1 X0.5292 Y14.6608
G0 Z0.6

(2D POCKET1)
G0 X9.275 Y14.5097
Z0.6
Z0.2
G1 Z0.125 F72.
G19 G3 Y14.5343 Z0.1 J0.025 K0.
G1 Y15.875 Z0.0776
X9.225 Z0.0767
Y12.188 Z0.0151
X9.275 Z0.0142
Y15.875 Z-0.0474
X9.225 Z-0.0483
Y12.188 Z-0.1099
X9.275 Z-0.1108
Y12.228 Z-0.1114
Y15.875 F216.
X9.225
Y12.188
X9.275
Y12.228
Y15.875 Z-0.1724 F72.
X9.225 Z-0.1733
Y12.9095 Z-0.2229
Y12.188 F216.
X9.275
Y15.875
X9.225
Y12.9095
Y12.188 Z-0.2349 F72.
X9.275 Z-0.2358
Y15.875 Z-0.2974
X9.225 Z-0.2983
Y13.7209 Z-0.3343
Y12.9095 F216.
Y12.188
X9.275
Y15.875
X9.225
Y13.7209
Y12.188 Z-0.3599 F72.
X9.275 Z-0.3608
Y15.875 Z-0.4224
X9.225 Z-0.4233
Y14.5324 Z-0.4457
Y12.188 F216.
X9.275
Y15.875
X9.225
Y14.5324
Y12.188 Z-0.4849 F72.
X9.275 Z-0.4858
Y15.875 Z-0.5474
X9.225 Z-0.5483
Y15.3439 Z-0.5571
Y12.188 F216.
X9.275
Y15.875
X9.225
Y15.3439
Y12.188 Z-0.6099 F72.
X9.275 Z-0.6108
Y15.6447 Z-0.6686
Y15.875 F216.
X9.225
Y12.188
X9.275
Y15.6447
Y15.875 Z-0.6724 F72.
X9.225 Z-0.6733
Y12.188 Z-0.7349
X9.275 Z-0.7358
Y14.8332 Z-0.78
Y15.6447 F216.
Y15.875
X9.225
Y12.188
X9.275
Y14.8332
G3 Y14.8582 Z-0.755 J0. K0.025
G0 Z0.2
X10.4956 Y13.9801
G1 Z0.125 F72.
X10.4965 Y13.9808 Z0.1174
X10.4992 Y13.9829 Z0.1106
X10.5032 Y13.9864 Z0.1051
X10.5081 Y13.991 Z0.1014
X10.5132 Y13.9965 Z0.1
G17 G3 X10.3347 Y14.1531 Z0.087 I-0.0893 J0.0783
X10.5132 Y13.9965 Z0.0739 I0.0893 J-0.0783
X10.3347 Y14.1531 Z0.0609 I-0.0893 J0.0783
X10.5132 Y13.9965 Z0.0479 I0.0893 J-0.0783
X10.3347 Y14.1531 Z0.0349 I-0.0893 J0.0783
X10.5132 Y13.9965 Z0.0218 I0.0893 J-0.0783
X10.3347 Y14.1531 Z0.0088 I-0.0893 J0.0783
X10.5132 Y13.9965 Z-0.0042 I0.0893 J-0.0783
X10.3347 Y14.1531 Z-0.0172 I-0.0893 J0.0783
X10.5132 Y13.9965 Z-0.0303 I0.0893 J-0.0783
X10.3347 Y14.1531 Z-0.0433 I-0.0893 J0.0783
X10.5132 Y13.9965 Z-0.0563 I0.0893 J-0.0783
X10.3347 Y14.1531 Z-0.0694 I-0.0893 J0.0783
X10.5132 Y13.9965 Z-0.0824 I0.0893 J-0.0783
X10.3347 Y14.1531 Z-0.0954 I-0.0893 J0.0783
X10.5132 Y13.9965 Z-0.1084 I0.0893 J-0.0783
X10.5427 Y14.0748 Z-0.1114 I-0.0893 J0.0783
G1 X10.5426 Y16.9216 F216.
G3 X10.5322 I-0.0052 J0.
G1 Y14.0748
X10.5324 Y14.0732
X10.5332 Y14.0717
X10.5343 Y14.0706
X10.5358 Y14.0698
X10.5374 Y14.0696
X10.539 Y14.0698
X10.5405 Y14.0705
X10.5417 Y14.0717
X10.5424 Y14.0731
X10.5427 Y14.0748
G2 X10.6082 Y14.1731 I0.1065 J0.
G3 X10.6737 Y14.2714 I-0.041 J0.0983
G1 Y17.0487
G3 X10.6609 Y17.0615 I-0.0128 J0.
G1 X10.4139
G3 X10.4011 Y17.0487 I0. J-0.0128
G1 Y13.9513
G3 X10.4139 Y13.9385 I0.0128 J0.
G1 X10.6609
G3 X10.6737 Y13.9513 I0. J0.0128
G1 Y14.2714
G2 X10.7468 Y14.381 I0.1188 J0.
G3 X10.8199 Y14.4907 I-0.0457 J0.1097
G1 Y14.6673
Y17.2077
X10.2549
Y13.7923
X10.8199
Y14.4907
G3 X10.8005 Y14.5011 I-0.0125 J0.
G1 X10.5349 Y14.3246
X10.5333 Y14.3234
X10.532 Y14.3219
X10.5309 Y14.3202
X10.3946 Y13.9746
G3 X10.4042 Y13.9577 I0.0116 J-0.0046
X10.4437 Y14.1919 Z-0.1245 I0.0198 J0.1171 F72.
X10.4042 Y13.9577 Z-0.1375 I-0.0198 J-0.1171
X10.4437 Y14.1919 Z-0.1505 I0.0198 J0.1171
X10.4042 Y13.9577 Z-0.1635 I-0.0198 J-0.1171
X10.4437 Y14.1919 Z-0.1766 I0.0198 J0.1171
X10.4042 Y13.9577 Z-0.1896 I-0.0198 J-0.1171
X10.4437 Y14.1919 Z-0.2026 I0.0198 J0.1171
X10.4042 Y13.9577 Z-0.2157 I-0.0198 J-0.1171
X10.5427 Y14.0748 Z-0.2229 I0.0198 J0.1171
G1 X10.5426 Y16.9216 F216.
G3 X10.5322 I-0.0052 J0.
G1 Y14.0748
X10.5324 Y14.0732
X10.5332 Y14.0717
X10.5343 Y14.0706
X10.5358 Y14.0698
X10.5374 Y14.0696
X10.539 Y14.0698
X10.5405 Y14.0705
X10.5417 Y14.0717
X10.5424 Y14.0731
X10.5427 Y14.0748
G2 X10.6082 Y14.1731 I0.1065 J0.
G3 X10.6737 Y14.2714 I-0.041 J0.0983
G1 Y17.0487
G3 X10.6609 Y17.0615 I-0.0128 J0.
G1 X10.4139
G3 X10.4011 Y17.0487 I0. J-0.0128
G1 Y13.9513
G3 X10.4139 Y13.9385 I0.0128 J0.
G1 X10.6609
G3 X10.6737 Y13.9513 I0. J0.0128
G1 Y14.2714
G2 X10.7468 Y14.381 I0.1188 J0.
G3 X10.8199 Y14.4907 I-0.0457 J0.1097
G1 Y14.6673
Y17.2077
X10.2549
Y13.7923
X10.8199
Y14.4907
G3 X10.8005 Y14.5011 I-0.0125 J0.
G1 X10.5349 Y14.3246
X10.5333 Y14.3234
X10.532 Y14.3219
X10.5309 Y14.3202
X10.3946 Y13.9746
G3 X10.4042 Y13.9577 I0.0116 J-0.0046
X10.4437 Y14.1919 Z-0.2359 I0.0198 J0.1171 F72.
X10.4042 Y13.9577 Z-0.2489 I-0.0198 J-0.1171
X10.4437 Y14.1919 Z-0.2619 I0.0198 J0.1171
X10.4042 Y13.9577 Z-0.275 I-0.0198 J-0.1171
X10.4437 Y14.1919 Z-0.288 I0.0198 J0.1171
X10.4042 Y13.9577 Z-0.301 I-0.0198 J-0.1171
X10.4437 Y14.1919 Z-0.3141 I0.0198 J0.1171
X10.4042 Y13.9577 Z-0.3271 I-0.0198 J-0.1171
X10.5427 Y14.0748 Z-0.3343 I0.0198 J0.1171
G1 X10.5426 Y16.9216 F216.
G3 X10.5322 I-0.0052 J0.
G1 Y14.0748
X10.5324 Y14.0732
X10.5332 Y14.0717
X10.5343 Y14.0706
X10.5358 Y14.0698
X10.5374 Y14.0696
X10.539 Y14.0698
X10.5405 Y14.0705
X10.5417 Y14.0717
X10.5424 Y14.0731
X10.5427 Y14.0748
G2 X10.6082 Y14.1731 I0.1065 J0.
G3 X10.6737 Y14.2714 I-0.041 J0.0983
G1 Y17.0487
G3 X10.6609 Y17.0615 I-0.0128 J0.
G1 X10.4139
G3 X10.4011 Y17.0487 I0. J-0.0128
G1 Y13.9513
G3 X10.4139 Y13.9385 I0.0128 J0.
G1 X10.6609
G3 X10.6737 Y13.9513 I0. J0.0128
G1 Y14.2714
G2 X10.7468 Y14.381 I0.1188 J0.
G3 X10.8199 Y14.4907 I-0.0457 J0.1097
G1 Y14.6673
Y17.2077
X10.2549
Y13.7923
X10.8199
Y14.4907
G3 X10.8005 Y14.5011 I-0.0125 J0.
G1 X10.5349 Y14.3246
X10.5333 Y14.3234
X10.532 Y14.3219
X10.5309 Y14.3202
X10.3946 Y13.9746
G3 X10.4042 Y13.9577 I0.0116 J-0.0046
X10.4437 Y14.1919 Z-0.3473 I0.0198 J0.1171 F72.
X10.4042 Y13.9577 Z-0.3603 I-0.0198 J-0.1171
X10.4437 Y14.1919 Z-0.3734 I0.0198 J0.1171
X10.4042 Y13.9577 Z-0.3864 I-0.0198 J-0.1171
X10.4437 Y14.1919 Z-0.3994 I0.0198 J0.1171
X10.4042 Y13.9577 Z-0.4125 I-0.0198 J-0.1171
X10.4437 Y14.1919 Z-0.4255 I0.0198 J0.1171
X10.4042 Y13.9577 Z-0.4385 I-0.0198 J-0.1171
X10.5427 Y14.0748 Z-0.4457 I0.0198 J0.1171
G1 X10.5426 Y16.9216 F216.
G3 X10.5322 I-0.0052 J0.
G1 Y14.0748
X10.5324 Y14.0732
X10.5332 Y14.0717
X10.5343 Y14.0706
X10.5358 Y14.0698
X10.5374 Y14.0696
X10.539 Y14.0698
X10.5405 Y14.0705
X10.5417 Y14.0717
X10.5424 Y14.0731
X10.5427 Y14.0748
G2 X10.6082 Y14.1731 I0.1065 J0.
G3 X10.6737 Y14.2714 I-0.041 J0.0983
G1 Y17.0487
G3 X10.6609 Y17.0615 I-0.0128 J0.
G1 X10.4139
G3 X10.4011 Y17.0487 I0. J-0.0128
G1 Y13.9513
G3 X10.4139 Y13.9385 I0.0128 J0.
G1 X10.6609
G3 X10.6737 Y13.9513 I0. J0.0128
G1 Y14.2714
G2 X10.7468 Y14.381 I0.1188 J0.
G3 X10.8199 Y14.4907 I-0.0457 J0.1097
G1 Y14.6673
Y17.2077
X10.2549
Y13.7923
X10.8199
Y14.4907
G3 X10.8005 Y14.5011 I-0.0125 J0.
G1 X10.5349 Y14.3246
X10.5333 Y14.3234
X10.532 Y14.3219
X10.5309 Y14.3202
X10.3946 Y13.9746
G3 X10.4042 Y13.9577 I0.0116 J-0.0046
X10.4437 Y14.1919 Z-0.4587 I0.0198 J0.1171 F72.
X10.4042 Y13.9577 Z-0.4718 I-0.0198 J-0.1171
X10.4437 Y14.1919 Z-0.4848 I0.0198 J0.1171
X10.4042 Y13.9577 Z-0.4978 I-0.0198 J-0.1171
X10.4437 Y14.1919 Z-0.5109 I0.0198 J0.1171
X10.4042 Y13.9577 Z-0.5239 I-0.0198 J-0.1171
X10.4437 Y14.1919 Z-0.5369 I0.0198 J0.1171
X10.4042 Y13.9577 Z-0.5499 I-0.0198 J-0.1171
X10.5427 Y14.0748 Z-0.5571 I0.0198 J0.1171
G1 X10.5426 Y16.9216 F216.
G3 X10.5322 I-0.0052 J0.
G1 Y14.0748
X10.5324 Y14.0732
X10.5332 Y14.0717
X10.5343 Y14.0706
X10.5358 Y14.0698
X10.5374 Y14.0696
X10.539 Y14.0698
X10.5405 Y14.0705
X10.5417 Y14.0717
X10.5424 Y14.0731
X10.5427 Y14.0748
G2 X10.6082 Y14.1731 I0.1065 J0.
G3 X10.6737 Y14.2714 I-0.041 J0.0983
G1 Y17.0487
G3 X10.6609 Y17.0615 I-0.0128 J0.
G1 X10.4139
G3 X10.4011 Y17.0487 I0. J-0.0128
G1 Y13.9513
G3 X10.4139 Y13.9385 I0.0128 J0.
G1 X10.6609
G3 X10.6737 Y13.9513 I0. J0.0128
G1 Y14.2714
G2 X10.7468 Y14.381 I0.1188 J0.
G3 X10.8199 Y14.4907 I-0.0457 J0.1097
G1 Y14.6673
Y17.2077
X10.2549
Y13.7923
X10.8199
Y14.4907
G3 X10.8005 Y14.5011 I-0.0125 J0.
G1 X10.5349 Y14.3246
X10.5333 Y14.3234
X10.532 Y14.3219
X10.5309 Y14.3202
X10.3946 Y13.9746
G3 X10.4042 Y13.9577 I0.0116 J-0.0046
X10.4437 Y14.1919 Z-0.5702 I0.0198 J0.1171 F72.
X10.4042 Y13.9577 Z-0.5832 I-0.0198 J-0.1171
X10.4437 Y14.1919 Z-0.5962 I0.0198 J0.1171
X10.4042 Y13.9577 Z-0.6093 I-0.0198 J-0.1171
X10.4437 Y14.1919 Z-0.6223 I0.0198 J0.1171
X10.4042 Y13.9577 Z-0.6353 I-0.0198 J-0.1171
X10.4437 Y14.1919 Z-0.6483 I0.0198 J0.1171
X10.4042 Y13.9577 Z-0.6614 I-0.0198 J-0.1171
X10.5427 Y14.0748 Z-0.6686 I0.0198 J0.1171
G1 X10.5426 Y16.9216 F216.
G3 X10.5322 I-0.0052 J0.
G1 Y14.0748
X10.5324 Y14.0732
X10.5332 Y14.0717
X10.5343 Y14.0706
X10.5358 Y14.0698
X10.5374 Y14.0696
X10.539 Y14.0698
X10.5405 Y14.0705
X10.5417 Y14.0717
X10.5424 Y14.0731
X10.5427 Y14.0748
G2 X10.6082 Y14.1731 I0.1065 J0.
G3 X10.6737 Y14.2714 I-0.041 J0.0983
G1 Y17.0487
G3 X10.6609 Y17.0615 I-0.0128 J0.
G1 X10.4139
G3 X10.4011 Y17.0487 I0. J-0.0128
G1 Y13.9513
G3 X10.4139 Y13.9385 I0.0128 J0.
G1 X10.6609
G3 X10.6737 Y13.9513 I0. J0.0128
G1 Y14.2714
G2 X10.7468 Y14.381 I0.1188 J0.
G3 X10.8199 Y14.4907 I-0.0457 J0.1097
G1 Y14.6673
Y17.2077
X10.2549
Y13.7923
X10.8199
Y14.4907
G3 X10.8005 Y14.5011 I-0.0125 J0.
G1 X10.5349 Y14.3246
X10.5333 Y14.3234
X10.532 Y14.3219
X10.5309 Y14.3202
X10.3946 Y13.9746
G3 X10.4042 Y13.9577 I0.0116 J-0.0046
X10.4437 Y14.1919 Z-0.6816 I0.0198 J0.1171 F72.
X10.4042 Y13.9577 Z-0.6946 I-0.0198 J-0.1171
X10.4437 Y14.1919 Z-0.7077 I0.0198 J0.1171
X10.4042 Y13.9577 Z-0.7207 I-0.0198 J-0.1171
X10.4437 Y14.1919 Z-0.7337 I0.0198 J0.1171
X10.4042 Y13.9577 Z-0.7467 I-0.0198 J-0.1171
X10.4437 Y14.1919 Z-0.7598 I0.0198 J0.1171
X10.4042 Y13.9577 Z-0.7728 I-0.0198 J-0.1171
X10.5427 Y14.0748 Z-0.78 I0.0198 J0.1171
G1 X10.5426 Y16.9216 F216.
G3 X10.5322 I-0.0052 J0.
G1 Y14.0748
X10.5324 Y14.0732
X10.5332 Y14.0717
X10.5343 Y14.0706
X10.5358 Y14.0698
X10.5374 Y14.0696
X10.539 Y14.0698
X10.5405 Y14.0705
X10.5417 Y14.0717
X10.5424 Y14.0731
X10.5427 Y14.0748
G2 X10.6082 Y14.1731 I0.1065 J0.
G3 X10.6737 Y14.2714 I-0.041 J0.0983
G1 Y17.0487
G3 X10.6609 Y17.0615 I-0.0128 J0.
G1 X10.4139
G3 X10.4011 Y17.0487 I0. J-0.0128
G1 Y13.9513
G3 X10.4139 Y13.9385 I0.0128 J0.
G1 X10.6609
G3 X10.6737 Y13.9513 I0. J0.0128
G1 Y14.2714
G2 X10.7468 Y14.381 I0.1188 J0.
G3 X10.8199 Y14.4907 I-0.0457 J0.1097
G1 Y14.6673
Y17.2077
X10.2549
Y13.7923
X10.8199
Y14.4907
X10.8196 Y14.4945 Z-0.7794
X10.8187 Y14.4983 Z-0.7788
X10.8174 Y14.5015 Z-0.777
X10.8157 Y14.5045 Z-0.7752
X10.8141 Y14.5068 Z-0.7725
X10.8122 Y14.5088 Z-0.7697
X10.8094 Y14.511 Z-0.7627
X10.8084 Y14.5117 Z-0.755
G0 Z0.2
X2.725 Y13.5644
G1 Z0.125 F72.
G19 G2 Y13.5399 Z0.1 J-0.025 K0.
G1 Y12.125 Z0.0767
X2.775 Z0.0759
Y15.875 Z0.0142
X2.725 Z0.0134
Y12.125 Z-0.0483
X2.775 Z-0.0491
Y15.875 Z-0.1108
X2.735 Z-0.1114
X2.725 F216.
Y12.125
X2.775
Y15.875
X2.735
X2.725 Z-0.1116 F72.
Y12.125 Z-0.1733
X2.775 Z-0.1741
Y15.0899 Z-0.2229
Y15.875 F216.
X2.735
X2.725
Y12.125
X2.775
Y15.0899
Y15.875 Z-0.2358 F72.
X2.725 Z-0.2366
Y12.125 Z-0.2983
X2.775 Z-0.2991
Y14.2647 Z-0.3343
Y15.0899 F216.
Y15.875
X2.725
Y12.125
X2.775
Y14.2647
Y15.875 Z-0.3608 F72.
X2.725 Z-0.3616
Y12.125 Z-0.4233
X2.775 Z-0.4241
Y13.4396 Z-0.4457
Y15.875 F216.
X2.725
Y12.125
X2.775
Y13.4396
Y15.875 Z-0.4858 F72.
X2.725 Z-0.4866
Y12.125 Z-0.5483
X2.775 Z-0.5491
Y12.6144 Z-0.5571
Y15.875 F216.
X2.725
Y12.125
X2.775
Y12.6144
Y15.875 Z-0.6108 F72.
X2.725 Z-0.6116
Y12.4107 Z-0.6686
Y12.125 F216.
X2.775
Y15.875
X2.725
Y12.4107
Y12.125 Z-0.6733 F72.
X2.775 Z-0.6741
Y15.875 Z-0.7358
X2.725 Z-0.7366
Y13.2359 Z-0.78
Y12.4107 F216.
Y12.125
X2.775
Y15.875
X2.725
Y13.2359
G2 Y13.2109 Z-0.755 J0. K0.025
G0 Z0.2
X1.4208 Y13.9801
G1 Z0.125 F72.
X1.4217 Y13.9808 Z0.1174
X1.4243 Y13.9829 Z0.1106
X1.4284 Y13.9864 Z0.1051
X1.4333 Y13.991 Z0.1014
X1.4384 Y13.9965 Z0.1
G17 G3 X1.2598 Y14.1531 Z0.087 I-0.0893 J0.0783
X1.4384 Y13.9965 Z0.0739 I0.0893 J-0.0783
X1.2598 Y14.1531 Z0.0609 I-0.0893 J0.0783
X1.4384 Y13.9965 Z0.0479 I0.0893 J-0.0783
X1.2598 Y14.1531 Z0.0349 I-0.0893 J0.0783
X1.4384 Y13.9965 Z0.0218 I0.0893 J-0.0783
X1.2598 Y14.1531 Z0.0088 I-0.0893 J0.0783
X1.4384 Y13.9965 Z-0.0042 I0.0893 J-0.0783
X1.2598 Y14.1531 Z-0.0172 I-0.0893 J0.0783
X1.4384 Y13.9965 Z-0.0303 I0.0893 J-0.0783
X1.2598 Y14.1531 Z-0.0433 I-0.0893 J0.0783
X1.4384 Y13.9965 Z-0.0563 I0.0893 J-0.0783
X1.2598 Y14.1531 Z-0.0694 I-0.0893 J0.0783
X1.4384 Y13.9965 Z-0.0824 I0.0893 J-0.0783
X1.2598 Y14.1531 Z-0.0954 I-0.0893 J0.0783
X1.4384 Y13.9965 Z-0.1084 I0.0893 J-0.0783
X1.4679 Y14.0748 Z-0.1114 I-0.0893 J0.0783
G1 Y16.9253 F216.
X1.4676 Y16.9269
X1.4669 Y16.9283
X1.4657 Y16.9295
X1.4643 Y16.9302
X1.4627 Y16.9305
X1.461 Y16.9302
X1.4595 Y16.9295
X1.4584 Y16.9283
X1.4576 Y16.9269
X1.4573 Y16.9253
Y14.0747
X1.4576 Y14.0731
X1.4583 Y14.0717
X1.4595 Y14.0705
X1.4609 Y14.0698
X1.4625 Y14.0695
X1.4642 Y14.0698
X1.4657 Y14.0705
X1.4668 Y14.0717
X1.4676 Y14.0731
X1.4679 Y14.0747
Y14.0748
G2 X1.5334 Y14.1731 I0.1065 J0.
G3 X1.5989 Y14.2713 I-0.0409 J0.0983
G1 Y17.0487
G3 X1.5861 Y17.0615 I-0.0128 J0.
G1 X1.3391
G3 X1.3263 Y17.0487 I0. J-0.0128
G1 Y13.9513
G3 X1.3391 Y13.9385 I0.0128 J0.
G1 X1.5861
G3 X1.5989 Y13.9513 I0. J0.0128
G1 Y14.2713
G2 X1.672 Y14.381 I0.1188 J0.
G3 X1.7451 Y14.4906 I-0.0457 J0.1096
G1 Y17.2077
X1.1801
Y13.7923
X1.7451
Y14.4906
G3 X1.7257 Y14.501 I-0.0125 J0.
G1 X1.4601 Y14.3246
X1.4585 Y14.3233
X1.4571 Y14.3219
X1.456 Y14.3202
X1.3198 Y13.9746
G3 X1.3293 Y13.9577 I0.0116 J-0.0046
X1.3689 Y14.1919 Z-0.1245 I0.0198 J0.1171 F72.
X1.3293 Y13.9577 Z-0.1375 I-0.0198 J-0.1171
X1.3689 Y14.1919 Z-0.1505 I0.0198 J0.1171
X1.3293 Y13.9577 Z-0.1635 I-0.0198 J-0.1171
X1.3689 Y14.1919 Z-0.1766 I0.0198 J0.1171
X1.3293 Y13.9577 Z-0.1896 I-0.0198 J-0.1171
X1.3689 Y14.1919 Z-0.2026 I0.0198 J0.1171
X1.3293 Y13.9577 Z-0.2157 I-0.0198 J-0.1171
X1.4679 Y14.0748 Z-0.2229 I0.0198 J0.1171
G1 Y16.9253 F216.
X1.4676 Y16.9269
X1.4669 Y16.9283
X1.4657 Y16.9295
X1.4643 Y16.9302
X1.4627 Y16.9305
X1.461 Y16.9302
X1.4595 Y16.9295
X1.4584 Y16.9283
X1.4576 Y16.9269
X1.4573 Y16.9253
Y14.0747
X1.4576 Y14.0731
X1.4583 Y14.0717
X1.4595 Y14.0705
X1.4609 Y14.0698
X1.4625 Y14.0695
X1.4642 Y14.0698
X1.4657 Y14.0705
X1.4668 Y14.0717
X1.4676 Y14.0731
X1.4679 Y14.0747
Y14.0748
G2 X1.5334 Y14.1731 I0.1065 J0.
G3 X1.5989 Y14.2713 I-0.0409 J0.0983
G1 Y17.0487
G3 X1.5861 Y17.0615 I-0.0128 J0.
G1 X1.3391
G3 X1.3263 Y17.0487 I0. J-0.0128
G1 Y13.9513
G3 X1.3391 Y13.9385 I0.0128 J0.
G1 X1.5861
G3 X1.5989 Y13.9513 I0. J0.0128
G1 Y14.2713
G2 X1.672 Y14.381 I0.1188 J0.
G3 X1.7451 Y14.4906 I-0.0457 J0.1096
G1 Y17.2077
X1.1801
Y13.7923
X1.7451
Y14.4906
G3 X1.7257 Y14.501 I-0.0125 J0.
G1 X1.4601 Y14.3246
X1.4585 Y14.3233
X1.4571 Y14.3219
X1.456 Y14.3202
X1.3198 Y13.9746
G3 X1.3293 Y13.9577 I0.0116 J-0.0046
X1.3689 Y14.1919 Z-0.2359 I0.0198 J0.1171 F72.
X1.3293 Y13.9577 Z-0.2489 I-0.0198 J-0.1171
X1.3689 Y14.1919 Z-0.2619 I0.0198 J0.1171
X1.3293 Y13.9577 Z-0.275 I-0.0198 J-0.1171
X1.3689 Y14.1919 Z-0.288 I0.0198 J0.1171
X1.3293 Y13.9577 Z-0.301 I-0.0198 J-0.1171
X1.3689 Y14.1919 Z-0.3141 I0.0198 J0.1171
X1.3293 Y13.9577 Z-0.3271 I-0.0198 J-0.1171
X1.4679 Y14.0748 Z-0.3343 I0.0198 J0.1171
G1 Y16.9253 F216.
X1.4676 Y16.9269
X1.4669 Y16.9283
X1.4657 Y16.9295
X1.4643 Y16.9302
X1.4627 Y16.9305
X1.461 Y16.9302
X1.4595 Y16.9295
X1.4584 Y16.9283
X1.4576 Y16.9269
X1.4573 Y16.9253
Y14.0747
X1.4576 Y14.0731
X1.4583 Y14.0717
X1.4595 Y14.0705
X1.4609 Y14.0698
X1.4625 Y14.0695
X1.4642 Y14.0698
X1.4657 Y14.0705
X1.4668 Y14.0717
X1.4676 Y14.0731
X1.4679 Y14.0747
Y14.0748
G2 X1.5334 Y14.1731 I0.1065 J0.
G3 X1.5989 Y14.2713 I-0.0409 J0.0983
G1 Y17.0487
G3 X1.5861 Y17.0615 I-0.0128 J0.
G1 X1.3391
G3 X1.3263 Y17.0487 I0. J-0.0128
G1 Y13.9513
G3 X1.3391 Y13.9385 I0.0128 J0.
G1 X1.5861
G3 X1.5989 Y13.9513 I0. J0.0128
G1 Y14.2713
G2 X1.672 Y14.381 I0.1188 J0.
G3 X1.7451 Y14.4906 I-0.0457 J0.1096
G1 Y17.2077
X1.1801
Y13.7923
X1.7451
Y14.4906
G3 X1.7257 Y14.501 I-0.0125 J0.
G1 X1.4601 Y14.3246
X1.4585 Y14.3233
X1.4571 Y14.3219
X1.456 Y14.3202
X1.3198 Y13.9746
G3 X1.3293 Y13.9577 I0.0116 J-0.0046
X1.3689 Y14.1919 Z-0.3473 I0.0198 J0.1171 F72.
X1.3293 Y13.9577 Z-0.3603 I-0.0198 J-0.1171
X1.3689 Y14.1919 Z-0.3734 I0.0198 J0.1171
X1.3293 Y13.9577 Z-0.3864 I-0.0198 J-0.1171
X1.3689 Y14.1919 Z-0.3994 I0.0198 J0.1171
X1.3293 Y13.9577 Z-0.4125 I-0.0198 J-0.1171
X1.3689 Y14.1919 Z-0.4255 I0.0198 J0.1171
X1.3293 Y13.9577 Z-0.4385 I-0.0198 J-0.1171
X1.4679 Y14.0748 Z-0.4457 I0.0198 J0.1171
G1 Y16.9253 F216.
X1.4676 Y16.9269
X1.4669 Y16.9283
X1.4657 Y16.9295
X1.4643 Y16.9302
X1.4627 Y16.9305
X1.461 Y16.9302
X1.4595 Y16.9295
X1.4584 Y16.9283
X1.4576 Y16.9269
X1.4573 Y16.9253
Y14.0747
X1.4576 Y14.0731
X1.4583 Y14.0717
X1.4595 Y14.0705
X1.4609 Y14.0698
X1.4625 Y14.0695
X1.4642 Y14.0698
X1.4657 Y14.0705
X1.4668 Y14.0717
X1.4676 Y14.0731
X1.4679 Y14.0747
Y14.0748
G2 X1.5334 Y14.1731 I0.1065 J0.
G3 X1.5989 Y14.2713 I-0.0409 J0.0983
G1 Y17.0487
G3 X1.5861 Y17.0615 I-0.0128 J0.
G1 X1.3391
G3 X1.3263 Y17.0487 I0. J-0.0128
G1 Y13.9513
G3 X1.3391 Y13.9385 I0.0128 J0.
G1 X1.5861
G3 X1.5989 Y13.9513 I0. J0.0128
G1 Y14.2713
G2 X1.672 Y14.381 I0.1188 J0.
G3 X1.7451 Y14.4906 I-0.0457 J0.1096
G1 Y17.2077
X1.1801
Y13.7923
X1.7451
Y14.4906
G3 X1.7257 Y14.501 I-0.0125 J0.
G1 X1.4601 Y14.3246
X1.4585 Y14.3233
X1.4571 Y14.3219
X1.456 Y14.3202
X1.3198 Y13.9746
G3 X1.3293 Y13.9577 I0.0116 J-0.0046
X1.3689 Y14.1919 Z-0.4587 I0.0198 J0.1171 F72.
X1.3293 Y13.9577 Z-0.4718 I-0.0198 J-0.1171
X1.3689 Y14.1919 Z-0.4848 I0.0198 J0.1171
X1.3293 Y13.9577 Z-0.4978 I-0.0198 J-0.1171
X1.3689 Y14.1919 Z-0.5109 I0.0198 J0.1171
X1.3293 Y13.9577 Z-0.5239 I-0.0198 J-0.1171
X1.3689 Y14.1919 Z-0.5369 I0.0198 J0.1171
X1.3293 Y13.9577 Z-0.5499 I-0.0198 J-0.1171
X1.4679 Y14.0748 Z-0.5571 I0.0198 J0.1171
G1 Y16.9253 F216.
X1.4676 Y16.9269
X1.4669 Y16.9283
X1.4657 Y16.9295
X1.4643 Y16.9302
X1.4627 Y16.9305
X1.461 Y16.9302
X1.4595 Y16.9295
X1.4584 Y16.9283
X1.4576 Y16.9269
X1.4573 Y16.9253
Y14.0747
X1.4576 Y14.0731
X1.4583 Y14.0717
X1.4595 Y14.0705
X1.4609 Y14.0698
X1.4625 Y14.0695
X1.4642 Y14.0698
X1.4657 Y14.0705
X1.4668 Y14.0717
X1.4676 Y14.0731
X1.4679 Y14.0747
Y14.0748
G2 X1.5334 Y14.1731 I0.1065 J0.
G3 X1.5989 Y14.2713 I-0.0409 J0.0983
G1 Y17.0487
G3 X1.5861 Y17.0615 I-0.0128 J0.
G1 X1.3391
G3 X1.3263 Y17.0487 I0. J-0.0128
G1 Y13.9513
G3 X1.3391 Y13.9385 I0.0128 J0.
G1 X1.5861
G3 X1.5989 Y13.9513 I0. J0.0128
G1 Y14.2713
G2 X1.672 Y14.381 I0.1188 J0.
G3 X1.7451 Y14.4906 I-0.0457 J0.1096
G1 Y17.2077
X1.1801
Y13.7923
X1.7451
Y14.4906
G3 X1.7257 Y14.501 I-0.0125 J0.
G1 X1.4601 Y14.3246
X1.4585 Y14.3233
X1.4571 Y14.3219
X1.456 Y14.3202
X1.3198 Y13.9746
G3 X1.3293 Y13.9577 I0.0116 J-0.0046
X1.3689 Y14.1919 Z-0.5702 I0.0198 J0.1171 F72.
X1.3293 Y13.9577 Z-0.5832 I-0.0198 J-0.1171
X1.3689 Y14.1919 Z-0.5962 I0.0198 J0.1171
X1.3293 Y13.9577 Z-0.6093 I-0.0198 J-0.1171
X1.3689 Y14.1919 Z-0.6223 I0.0198 J0.1171
X1.3293 Y13.9577 Z-0.6353 I-0.0198 J-0.1171
X1.3689 Y14.1919 Z-0.6483 I0.0198 J0.1171
X1.3293 Y13.9577 Z-0.6614 I-0.0198 J-0.1171
X1.4679 Y14.0748 Z-0.6686 I0.0198 J0.1171
G1 Y16.9253 F216.
X1.4676 Y16.9269
X1.4669 Y16.9283
X1.4657 Y16.9295
X1.4643 Y16.9302
X1.4627 Y16.9305
X1.461 Y16.9302
X1.4595 Y16.9295
X1.4584 Y16.9283
X1.4576 Y16.9269
X1.4573 Y16.9253
Y14.0747
X1.4576 Y14.0731
X1.4583 Y14.0717
X1.4595 Y14.0705
X1.4609 Y14.0698
X1.4625 Y14.0695
X1.4642 Y14.0698
X1.4657 Y14.0705
X1.4668 Y14.0717
X1.4676 Y14.0731
X1.4679 Y14.0747
Y14.0748
G2 X1.5334 Y14.1731 I0.1065 J0.
G3 X1.5989 Y14.2713 I-0.0409 J0.0983
G1 Y17.0487
G3 X1.5861 Y17.0615 I-0.0128 J0.
G1 X1.3391
G3 X1.3263 Y17.0487 I0. J-0.0128
G1 Y13.9513
G3 X1.3391 Y13.9385 I0.0128 J0.
G1 X1.5861
G3 X1.5989 Y13.9513 I0. J0.0128
G1 Y14.2713
G2 X1.672 Y14.381 I0.1188 J0.
G3 X1.7451 Y14.4906 I-0.0457 J0.1096
G1 Y17.2077
X1.1801
Y13.7923
X1.7451
Y14.4906
G3 X1.7257 Y14.501 I-0.0125 J0.
G1 X1.4601 Y14.3246
X1.4585 Y14.3233
X1.4571 Y14.3219
X1.456 Y14.3202
X1.3198 Y13.9746
G3 X1.3293 Y13.9577 I0.0116 J-0.0046
X1.3689 Y14.1919 Z-0.6816 I0.0198 J0.1171 F72.
X1.3293 Y13.9577 Z-0.6946 I-0.0198 J-0.1171
X1.3689 Y14.1919 Z-0.7077 I0.0198 J0.1171
X1.3293 Y13.9577 Z-0.7207 I-0.0198 J-0.1171
X1.3689 Y14.1919 Z-0.7337 I0.0198 J0.1171
X1.3293 Y13.9577 Z-0.7467 I-0.0198 J-0.1171
X1.3689 Y14.1919 Z-0.7598 I0.0198 J0.1171
X1.3293 Y13.9577 Z-0.7728 I-0.0198 J-0.1171
X1.4679 Y14.0748 Z-0.78 I0.0198 J0.1171
G1 Y16.9253 F216.
X1.4676 Y16.9269
X1.4669 Y16.9283
X1.4657 Y16.9295
X1.4643 Y16.9302
X1.4627 Y16.9305
X1.461 Y16.9302
X1.4595 Y16.9295
X1.4584 Y16.9283
X1.4576 Y16.9269
X1.4573 Y16.9253
Y14.0747
X1.4576 Y14.0731
X1.4583 Y14.0717
X1.4595 Y14.0705
X1.4609 Y14.0698
X1.4625 Y14.0695
X1.4642 Y14.0698
X1.4657 Y14.0705
X1.4668 Y14.0717
X1.4676 Y14.0731
X1.4679 Y14.0747
Y14.0748
G2 X1.5334 Y14.1731 I0.1065 J0.
G3 X1.5989 Y14.2713 I-0.0409 J0.0983
G1 Y17.0487
G3 X1.5861 Y17.0615 I-0.0128 J0.
G1 X1.3391
G3 X1.3263 Y17.0487 I0. J-0.0128
G1 Y13.9513
G3 X1.3391 Y13.9385 I0.0128 J0.
G1 X1.5861
G3 X1.5989 Y13.9513 I0. J0.0128
G1 Y14.2713
G2 X1.672 Y14.381 I0.1188 J0.
G3 X1.7451 Y14.4906 I-0.0457 J0.1096
G1 Y17.2077
X1.1801
Y13.7923
X1.7451
Y14.4906
X1.7448 Y14.4945 Z-0.7794
X1.7439 Y14.4982 Z-0.7788
X1.7426 Y14.5015 Z-0.777
X1.7409 Y14.5045 Z-0.7752
X1.7392 Y14.5067 Z-0.7725
X1.7373 Y14.5087 Z-0.7697
X1.7346 Y14.511 Z-0.7627
X1.7336 Y14.5117 Z-0.755
G0 Z0.6

M9
M30
