(ROBOT PLATFORM 2)
(T1  D=0.125 CR=0. - ZMIN=-0.78 - FLAT END MILL)
G90 G94 G91.1 G40 G49 G17
G20

(2D POCKET2)
M5
T1 M6
S24000 M3
G54
M8
G0 X8.9342 Y1.587
G43 Z0.6 H1
Z0.2
G1 Z0.1125 F64.
G19 G2 Y1.5745 Z0.1 J-0.0125 K0.
G1 Y0.7833 Z0.0976
G17 G3 X8.9863 Z0.0974 I0.0261 J0.
G1 Y11.2817 Z0.0661
G3 X8.9342 Z0.0659 I-0.0261 J0.
G1 Y0.7833 Z0.0346
G3 X8.9863 Z0.0344 I0.0261 J0.
G1 Y11.2817 Z0.0031
G3 X8.9342 Z0.0029 I-0.0261 J0.
G1 Y0.7833 Z-0.0284
G3 X8.9863 Z-0.0286 I0.0261 J0.
G1 Y11.2817 Z-0.0599
G3 X8.9528 Y11.3067 Z-0.06 I-0.0261 J0.
X8.9342 Y11.2817 I0.0074 J-0.025 F192.
G1 Y0.7833
G3 X8.9863 I0.0261 J0.
G1 Y11.2817
G3 X8.9528 Y11.3067 I-0.0261 J0.
X8.9342 Y11.2817 Z-0.0601 I0.0074 J-0.025 F64.
G1 Y0.7833 Z-0.0914
G3 X8.9863 Z-0.0916 I0.0261 J0.
G1 Y10.3225 Z-0.12
Y11.2817 F192.
G3 X8.9342 I-0.0261 J0.
G1 Y0.7833
G3 X8.9863 I0.0261 J0.
G1 Y10.3225
Y11.2817 Z-0.1229 F64.
G3 X8.9342 Z-0.1231 I-0.0261 J0.
G1 Y0.7833 Z-0.1544
G3 X8.9863 Z-0.1546 I0.0261 J0.
G1 Y9.3149 Z-0.18
Y10.3225 F192.
Y11.2817
G3 X8.9342 I-0.0261 J0.
G1 Y0.7833
G3 X8.9863 I0.0261 J0.
G1 Y9.3149
Y11.2817 Z-0.1859 F64.
G3 X8.9342 Z-0.1861 I-0.0261 J0.
G1 Y0.7833 Z-0.2174
G3 X8.9863 Z-0.2176 I0.0261 J0.
G1 Y8.3072 Z-0.24
Y11.2817 F192.
G3 X8.9342 I-0.0261 J0.
G1 Y0.7833
G3 X8.9863 I0.0261 J0.
G1 Y8.3072
Y11.2817 Z-0.2489 F64.
G3 X8.9342 Z-0.2491 I-0.0261 J0.
G1 Y0.7833 Z-0.2804
G3 X8.9863 Z-0.2806 I0.0261 J0.
G1 Y7.2995 Z-0.3
Y11.2817 F192.
G3 X8.9342 I-0.0261 J0.
G1 Y0.7833
G3 X8.9863 I0.0261 J0.
G1 Y7.2995
Y11.2817 Z-0.3119 F64.
G3 X8.9342 Z-0.3121 I-0.0261 J0.
G1 Y0.7833 Z-0.3434
G3 X8.9863 Z-0.3436 I0.0261 J0.
G1 Y6.2919 Z-0.36
Y11.2817 F192.
G3 X8.9342 I-0.0261 J0.
G1 Y0.7833
G3 X8.9863 I0.0261 J0.
G1 Y6.2919
Y11.2817 Z-0.3749 F64.
G3 X8.9342 Z-0.3751 I-0.0261 J0.
G1 Y0.7833 Z-0.4064
G3 X8.9863 Z-0.4066 I0.0261 J0.
G1 Y5.2842 Z-0.42
Y11.2817 F192.
G3 X8.9342 I-0.0261 J0.
G1 Y0.7833
G3 X8.9863 I0.0261 J0.
G1 Y5.2842
Y11.2817 Z-0.4379 F64.
G3 X8.9342 Z-0.4381 I-0.0261 J0.
G1 Y0.7833 Z-0.4694
G3 X8.9863 Z-0.4696 I0.0261 J0.
G1 Y4.2766 Z-0.48
Y11.2817 F192.
G3 X8.9342 I-0.0261 J0.
G1 Y0.7833
G3 X8.9863 I0.0261 J0.
G1 Y4.2766
Y11.2817 Z-0.5009 F64.
G3 X8.9342 Z-0.5011 I-0.0261 J0.
G1 Y0.7833 Z-0.5324
G3 X8.9863 Z-0.5326 I0.0261 J0.
G1 Y3.2689 Z-0.54
Y11.2817 F192.
G3 X8.9342 I-0.0261 J0.
G1 Y0.7833
G3 X8.9863 I0.0261 J0.
G1 Y3.2689
Y11.2817 Z-0.5639 F64.
G3 X8.9342 Z-0.5641 I-0.0261 J0.
G1 Y0.7833 Z-0.5954
G3 X8.9863 Z-0.5956 I0.0261 J0.
G1 Y2.2613 Z-0.6
Y11.2817 F192.
G3 X8.9342 I-0.0261 J0.
G1 Y0.7833
G3 X8.9863 I0.0261 J0.
G1 Y2.2613
Y11.2817 Z-0.6269 F64.
G3 X8.9342 Z-0.6271 I-0.0261 J0.
G1 Y0.7833 Z-0.6584
G3 X8.9863 Z-0.6586 I0.0261 J0.
G1 Y1.2536 Z-0.66
Y11.2817 F192.
G3 X8.9342 I-0.0261 J0.
G1 Y0.7833
G3 X8.9863 I0.0261 J0.
G1 Y1.2536
Y11.2817 Z-0.6899 F64.
G3 X8.9342 Z-0.6901 I-0.0261 J0.
G1 Y1.2386 Z-0.72
Y0.7833 F192.
G3 X8.9863 I0.0261 J0.
G1 Y11.2817
G3 X8.9342 I-0.0261 J0.
G1 Y1.2386
Y0.7833 Z-0.7214 F64.
G3 X8.9863 Z-0.7216 I0.0261 J0.
G1 Y11.2817 Z-0.7529
G3 X8.9342 Z-0.7531 I-0.0261 J0.
G1 Y2.2463 Z-0.78
Y1.2386 F192.
Y0.7833
G3 X8.9863 I0.0261 J0.
G1 Y11.2817
G3 X8.9342 I-0.0261 J0.
G1 Y2.2463
X8.9344 Y2.2439 Z-0.7795
X8.9351 Y2.2416 Z-0.779
X8.936 Y2.2398 Z-0.7777
X8.9372 Y2.2382 Z-0.7763
X8.9391 Y2.2363 Z-0.7723
X8.9399 Y2.2358 Z-0.7675
G0 Z0.2
X3.0659 Y10.519
G1 Z0.1125 F64.
G19 G3 Y10.5314 Z0.1 J0.0125 K0.
G1 Y11.2817 Z0.0978
G17 G3 X3.0137 Z0.0975 I-0.0261 J0.
G1 Y0.7833 Z0.0663
G3 X3.0659 Z0.066 I0.0261 J0.
G1 Y11.2817 Z0.0348
G3 X3.0137 Z0.0345 I-0.0261 J0.
G1 Y0.7833 Z0.0033
G3 X3.0659 Z0.003 I0.0261 J0.
G1 Y11.2817 Z-0.0282
G3 X3.0137 Z-0.0285 I-0.0261 J0.
G1 Y0.7833 Z-0.0597
G3 X3.0659 Z-0.06 I0.0261 J0.
G1 Y0.7908
Y11.2817 F192.
G3 X3.0137 I-0.0261 J0.
G1 Y0.7833
G3 X3.0659 I0.0261 J0.
G1 Y0.7908
Y11.2817 Z-0.0912 F64.
G3 X3.0137 Z-0.0915 I-0.0261 J0.
G1 Y1.7015 Z-0.12
Y0.7833 F192.
G3 X3.0659 I0.0261 J0.
G1 Y11.2817
G3 X3.0137 I-0.0261 J0.
G1 Y1.7015
Y0.7833 Z-0.1227 F64.
G3 X3.0659 Z-0.123 I0.0261 J0.
G1 Y11.2817 Z-0.1542
G3 X3.0137 Z-0.1545 I-0.0261 J0.
G1 Y2.7091 Z-0.18
Y1.7015 F192.
Y0.7833
G3 X3.0659 I0.0261 J0.
G1 Y11.2817
G3 X3.0137 I-0.0261 J0.
G1 Y2.7091
Y0.7833 Z-0.1857 F64.
G3 X3.0659 Z-0.186 I0.0261 J0.
G1 Y11.2817 Z-0.2172
G3 X3.0137 Z-0.2175 I-0.0261 J0.
G1 Y3.7168 Z-0.24
Y0.7833 F192.
G3 X3.0659 I0.0261 J0.
G1 Y11.2817
G3 X3.0137 I-0.0261 J0.
G1 Y3.7168
Y0.7833 Z-0.2487 F64.
G3 X3.0659 Z-0.249 I0.0261 J0.
G1 Y11.2817 Z-0.2802
G3 X3.0137 Z-0.2805 I-0.0261 J0.
G1 Y4.7244 Z-0.3
Y0.7833 F192.
G3 X3.0659 I0.0261 J0.
G1 Y11.2817
G3 X3.0137 I-0.0261 J0.
G1 Y4.7244
Y0.7833 Z-0.3117 F64.
G3 X3.0659 Z-0.312 I0.0261 J0.
G1 Y11.2817 Z-0.3432
G3 X3.0137 Z-0.3435 I-0.0261 J0.
G1 Y5.7321 Z-0.36
Y0.7833 F192.
G3 X3.0659 I0.0261 J0.
G1 Y11.2817
G3 X3.0137 I-0.0261 J0.
G1 Y5.7321
Y0.7833 Z-0.3747 F64.
G3 X3.0659 Z-0.375 I0.0261 J0.
G1 Y11.2817 Z-0.4062
G3 X3.0137 Z-0.4065 I-0.0261 J0.
G1 Y6.7398 Z-0.42
Y0.7833 F192.
G3 X3.0659 I0.0261 J0.
G1 Y11.2817
G3 X3.0137 I-0.0261 J0.
G1 Y6.7398
Y0.7833 Z-0.4377 F64.
G3 X3.0659 Z-0.438 I0.0261 J0.
G1 Y11.2817 Z-0.4692
G3 X3.0137 Z-0.4695 I-0.0261 J0.
G1 Y7.7474 Z-0.48
Y0.7833 F192.
G3 X3.0659 I0.0261 J0.
G1 Y11.2817
G3 X3.0137 I-0.0261 J0.
G1 Y7.7474
Y0.7833 Z-0.5007 F64.
G3 X3.0659 Z-0.501 I0.0261 J0.
G1 Y11.2817 Z-0.5322
G3 X3.0137 Z-0.5325 I-0.0261 J0.
G1 Y8.7551 Z-0.54
Y0.7833 F192.
G3 X3.0659 I0.0261 J0.
G1 Y11.2817
G3 X3.0137 I-0.0261 J0.
G1 Y8.7551
Y0.7833 Z-0.5637 F64.
G3 X3.0659 Z-0.564 I0.0261 J0.
G1 Y11.2817 Z-0.5952
G3 X3.0137 Z-0.5955 I-0.0261 J0.
G1 Y9.7627 Z-0.6
Y0.7833 F192.
G3 X3.0659 I0.0261 J0.
G1 Y11.2817
G3 X3.0137 I-0.0261 J0.
G1 Y9.7627
Y0.7833 Z-0.6267 F64.
G3 X3.0659 Z-0.627 I0.0261 J0.
G1 Y11.2817 Z-0.6582
G3 X3.0137 Z-0.6585 I-0.0261 J0.
G1 Y10.7704 Z-0.66
Y0.7833 F192.
G3 X3.0659 I0.0261 J0.
G1 Y11.2817
G3 X3.0137 I-0.0261 J0.
G1 Y10.7704
Y0.7833 Z-0.6897 F64.
G3 X3.0659 Z-0.69 I0.0261 J0.
G1 Y10.8673 Z-0.72
Y11.2817 F192.
G3 X3.0137 I-0.0261 J0.
G1 Y0.7833
G3 X3.0659 I0.0261 J0.
G1 Y10.8673
Y11.2817 Z-0.7212 F64.
G3 X3.0137 Z-0.7215 I-0.0261 J0.
G1 Y0.7833 Z-0.7527
G3 X3.0659 Z-0.753 I0.0261 J0.
G1 Y9.8597 Z-0.78
Y10.8673 F192.
Y11.2817
G3 X3.0137 I-0.0261 J0.
G1 Y0.7833
G3 X3.0659 I0.0261 J0.
G1 Y9.8597
X3.0656 Y9.862 Z-0.7795
X3.065 Y9.8643 Z-0.779
X3.064 Y9.8661 Z-0.7777
X3.0629 Y9.8678 Z-0.7763
X3.0609 Y9.8696 Z-0.7723
X3.0601 Y9.8702 Z-0.7675
G0 Z0.6

M9
M30
